!!!COM: L. van Beethoven
!!!OTL: Op. 59 No. 3 Movement 1 - String Quartet No. 9
**kern	**dynam	**kern	**dynam	**kern	**dynam	**kern	**dynam	**mxhm
*part4	*part4	*part3	*part3	*part2	*part2	*part1	*part1	*part1
*staff4	*	*staff3	*	*staff2	*	*staff1	*	*
*I"Cello	*	*I"Viola	*	*I"2nd Violin	*	*I"1st Violin	*	*
*clefF4	*	*clefC3	*	*clefG2	*	*clefG2	*	*
*k[f#c#g#]	*	*k[f#c#g#]	*	*k[f#c#g#]	*	*k[f#c#g#]	*	*
*f#:	*	*f#:	*	*f#:	*	*f#:	*	*
*M6/8	*	*M6/8	*	*M6/8	*	*M6/8	*	*
=1	=1	=1	=1	=1	=1	=1	=1	=1
!LO:TX:a:t=pizz.	!	!	!	!	!	!LO:TX:a:B:t=Andante con moto quasi Allegretto.	!	!
4CC#	f	2.r	.	2.r	.	8r	.	i64
.	.	.	.	.	.	8r	.	.
8r	.	.	.	.	.	(8c#	p	.
4CC#	p	.	.	.	.	8f#L	.	.
.	.	.	.	.	.	8g#	.	.
8r	.	.	.	.	.	8aJ)	.	.
=2	=2	=2	=2	=2	=2	=2	=2	=2
4CC#	.	2.r	.	2.r	.	(8g#L	.	V
.	.	.	.	.	.	8f#	.	.
8r	.	.	.	.	.	8e#XJ	.	.
4CC#	.	.	.	.	.	8dL	.	V7
.	.	.	.	.	.	8c#	.	.
8r	.	.	.	.	.	8BJ)	.	.
=3	=3	=3	=3	=3	=3	=3	=3	=3
4CC#	.	8r	.	8r	.	(8AL	.	i64
!	!	!	!	!	!LO:DY:a	!	!	!
.	.	8r	p	8r	p	8G#	.	.
8r	.	(8F#	.	(8F#	.	8F#J)	.	.
4CC#	.	8E#XL	.	8G#L	.	[4.c#	.	V7
.	.	8F#	.	8A	.	.	.	.
8r	.	8G#J)	.	8BJ)	.	.	.	.
=4	=4	=4	=4	=4	=4	=4	=4	=4
4CC#	.	(8F#L	.	(8AL	.	4.c#_	.	i64
.	.	8E#X	.	8G#	.	.	.	.
8r	.	8DJ	.	8F#J	.	.	.	.
4CC#	.	4C#	.	8E#XL	.	8c#L]	.	V7
.	.	.	.	8F#	.	8d#X	.	.
8r	.	8BB)	.	8G#J)	.	8e#XJ	.	.
=5	=5	=5	=5	=5	=5	=5	=5	=5
!LO:TX:b:i:t=cresc.	!	!	!	!	!	!	!	!
8FF#L	.	4AA	.	4A	.	4f#	.	i\\
8GG#	.	.	.	.	.	.	.	.
8FF#J	.	8r	.	8r	.	8r	.	.
8EE#XL	.	4r	.	4r	.	4r	.	.
8FF#	.	.	.	.	.	.	.	.
8EEJ	.	8r	.	8r	.	8r	.	.
=6	=6	=6	=6	=6	=6	=6	=6	=6
8DDL	.	2.r	.	2.r	.	2.r	.	.
8CC#	.	.	.	.	.	.	.	.
8BBBJ	.	.	.	.	.	.	.	.
8AAAL	.	.	.	.	.	.	.	.
8BBB	.	.	.	.	.	.	.	.
8BBB#XJ	.	.	.	.	.	.	.	.
=7:|!	=7:|!	=7:|!	=7:|!	=7:|!	=7:|!	=7:|!	=7:|!	=7:|!
!LO:TX:b:i:t=cresc.	!	!	!	!	!	!	!	!
8FF#L	.	4AA	.	4A	.	4f#	.	i\\
8GG#	.	.	.	.	.	.	.	.
8FF#J	.	8r	.	8r	.	8r	.	.
8EE#XL	.	4r	.	4r	.	4r	.	.
8FF#	.	.	.	.	.	.	.	.
8EEJ	.	8r	.	8r	.	8r	.	.
=8	=8	=8	=8	=8	=8	=8	=8	=8
8DDL	.	2.r	.	2.r	.	2.r	.	.
8EE	.	.	.	.	.	.	.	.
8DDJ	.	.	.	.	.	.	.	.
8CC#L	.	.	.	.	.	.	.	.
8DD	.	.	.	.	.	.	.	.
8BBBJ	.	.	.	.	.	.	.	.
=9!|:	=9!|:	=9!|:	=9!|:	=9!|:	=9!|:	=9!|:	=9!|:	=9!|:
4AAA	f	8r	.	8r	.	8r	.	III
.	.	8r	.	8r	.	8r	.	.
!	!	!	!LO:DY:a	!	!LO:DY:a	!	!	!
8r	.	(8A	p p	([8A	p	(8A	.	.
4AA	p	8GXL	.	8A_) 8c#L	.	8eL	.	V7/VI
.	.	8F#	.	8d	.	8f#	.	.
8r	.	8C#J)	.	8eJ	.	8gXJ)	.	.
=10	=10	=10	=10	=10	=10	=10	=10	=10
4DD	.	(8C#L	.	8A] (8eL	.	(8gXL	.	VI(94)
.	.	8D)	.	8d)	.	8f#)	.	VI
8r	.	8DJ	.	8dJ	.	8f#J	.	.
4FF#	.	(8EL	.	(8A#XL	.	[8f# 8c#L	.	V7/iv
.	.	8D	.	8B	.	8d	.	.
8r	.	8AA#XJ)	.	8c#J)	.	[8eJ	.	.
=11	=11	=11	=11	=11	=11	=11	=11	=11
4BBB	.	(8AA#XL	.	(8c#L	.	8f#] (8eL]	.	iv
.	.	8BBJ)	.	8BJ)	.	8dJ)	.	iv
8r	.	(8F#	.	[8f#	.	(8f#	.	.
4BB	f	8dL	fp	4.f#_	fp	8bL	fp	iv
.	.	8c#	.	.	.	8cc#	.	.
8r	.	8BJ)	.	.	.	8ddJ)	.	.
=12	=12	=12	=12	=12	=12	=12	=12	=12
4FF#	p	(8A#XL	.	4.f#]	.	(8cc#L	.	V/iv
.	.	8GX	.	.	.	8b	.	.
8r	.	8F#J	.	.	.	8a#XJ	.	.
4FF#	.	8EL	.	(8A#XL	.	8gXL	.	V7/iv
.	.	8D	.	8B	.	8f#	.	.
8r	.	8C#J)	.	8c#J)	.	8eJ)	.	.
=13	=13	=13	=13	=13	=13	=13	=13	=13
4BBB	.	(8BBL	.	4.F#	.	(8dL	.	iv
.	.	8C#	.	.	.	8c#	.	.
!LO:TX:a:t=arco	!	!	!	!	!	!	!	!
8r	.	8DJ)	.	.	.	8BJ)	.	.
4.C#	.	(8G#L	.	(8BL	.	(4.e#X	.	V7
.	.	8A	.	8c#	.	.	.	.
.	.	8BJ	.	8dJ	.	.	.	.
=14	=14	=14	=14	=14	=14	=14	=14	=14
4FF#	.	8AL	.	8c#L	.	4f#)	.	i\\
.	.	8G#	.	8B	.	.	.	.
8FF#	.	8F#J)	.	8AJ)	.	8f#	.	.
(8AAL	sfp	(4.B#X	sfp	(4.d#X	sfp	(8f#L	sfp	#viio2/V
8GG#	.	.	.	.	.	8g#	.	.
8FF#J)	.	.	.	.	.	8aJ	.	#viio43/V
=15	=15	=15	=15	=15	=15	=15	=15	=15
4.CC#	.	4.c#)	.	4.e#X)	.	8g#L	.	V
.	.	.	.	.	.	8e#X	.	.
.	.	.	.	.	.	8c#J)	.	.
4.C#	.	(8G#L	.	(8BL	.	(4.e#	.	V7(+9)
.	.	8A	.	8c#	.	.	.	.
.	.	8BJ	.	8dJ	.	.	.	.
=16	=16	=16	=16	=16	=16	=16	=16	=16
4FF#	.	8AL	.	8c#L	.	4f#)	.	i\\
.	.	8G#	.	8B	.	.	.	.
8FF#	.	8F#J)	.	8AJ)	.	8f#	.	.
(8AAL	sfp	(4.B#X	sfp	(4.d#X	sfp	(8f#L	sfp	#viio2/V
8GG#	.	.	.	.	.	8g#	.	.
8FF#J)	.	.	.	.	.	8aJ	.	#viio43/V
=17	=17	=17	=17	=17	=17	=17	=17	=17
4.CC#	.	4.c#)	.	4.e#X)	.	8g#L	.	V
.	.	.	.	.	.	8e#X	.	.
.	.	.	.	.	.	8c#J)	.	.
(8AAL	sfp	(4.B#X	sfp	(4.d#X	sfp	(8f#L	sfp	#viio2/V
8GG#	.	.	.	.	.	8g#	.	.
8FF#J)	.	.	.	.	.	8aJ	.	#viio/V
=18	=18	=18	=18	=18	=18	=18	=18	=18
4.CC#	.	4.c#)	.	4.e#X)	.	8g#L	.	V
.	.	.	.	.	.	8e#X	.	.
.	.	.	.	.	.	8c#J)	.	.
!LO:TX:b:i:t=cresc.	!	!LO:TX:b:i:t=cresc.	!	!LO:TX:b:i:t=cresc.	!	!LO:TX:b:i:t=cresc.	!	!
(8DL	.	4G#	.	4e#	.	(8bL	.	#viio2
8C#	.	.	.	.	.	8cc#	.	.
8BBJ)	.	8G#	.	8e#	.	8ddJ)	.	#viio43
=19	=19	=19	=19	=19	=19	=19	=19	=19
(4AA	p	(4A	p	4f#	p	(4cc#	p	i6
8D	.	[8d)	.	8f#	.	8f#	.	VI
4BB	.	(4d]	.	4f#	.	4a	.	iv7
8C#)	.	8G#)	.	8e#X	.	8g#)	.	V
=20	=20	=20	=20	=20	=20	=20	=20	=20
!LO:TX:b:i:t=cresc.	!	!LO:TX:b:i:t=cresc.	!	!LO:TX:b:i:t=cresc.	!	!LO:TX:b:i:t=cresc.	!	!
4D	.	(8G#L	.	(4e#X	.	(4g#	.	#viio2
.	.	8d	.	.	.	.	.	.
8r	.	8c#J	.	8f#	.	8a	.	.
4r	.	8BL	.	8g#L	.	8bL	.	.
.	.	8A	.	8a	.	8cc#	.	.
!LO:TX:a:t=pizz.	!	!	!	!	!	!	!	!
8EE#X	.	8G#J)	.	8bJ)	.	8ddJ)	.	#viio7
=21	=21	=21	=21	=21	=21	=21	=21	=21
4FF#	f	(8AL	f	(8aL	f	(8cc#L	f	i
.	.	8F#)	.	8c#)	.	8a)	.	.
8DD	>	8F#'J	.	8B'J	.	8f#J	.	iv6
4BBB	.	(8DL	>	(4f#	>	(4a	>	iv7
.	.	8d	.	.	.	.	.	.
8CC#	]]	8G#J)	]]	8e#X)	]]	8g#)	]]	V
=22	=22	=22	=22	=22	=22	=22	=22	=22
8FF#L	p	4A	p	4f#	p	4f#	p	i\\
8EE	.	.	.	.	.	.	.	.
!LO:TX:b:i:t=cresc.	!	!	!	!	!	!	!	!
8CC#J	.	8r	.	8r	.	8r	.	.
8EEL	.	4r	.	4r	.	4r	.	.
8DD	.	.	.	.	.	.	.	.
8BBBJ	.	8r	.	8r	.	8r	.	.
=23:|!	=23:|!	=23:|!	=23:|!	=23:|!	=23:|!	=23:|!	=23:|!	=23:|!
!	!	!	!LO:DY:a	!	!	!	!	!
4FF#	p	(4C#	p p	4A 4f#	.	(4f#	p	i[i64
8r	.	8F#	.	8c#	.	8a	.	i
4FF#	.	8E#XL	.	8BL	.	8g#L	.	#viio
.	.	8F#)	.	8c#	.	8a)	.	i
8r	.	8C#'J	.	8A'J	.	8f#'J	.	i64
=24	=24	=24	=24	=24	=24	=24	=24	=24
4FF#	.	(4C#	.	(4A	.	(4f#	.	.
8r	.	8F#)	.	8c#)	.	8a)	.	i
4FF#	.	(16E#XLL	.	(16BLL	.	(16g#LL	.	#viio
.	.	16F#)	.	16c#)	.	16a)	.	.
.	.	(16BB	.	(16d	.	(16b	.	.
.	.	16C#)	.	16c#)	.	16a)	.	.
8r	.	(16D	.	(16B	.	(16g#	.	.
.	.	16C#JJ)	.	16AJJ)	.	16f#JJ)	.	.
=25	=25	=25	=25	=25	=25	=25	=25	=25
4FF#	.	(4C#	.	(4A	.	(4f#	.	i64
8r	.	8F#)	.	8c#)	.	8a)	.	i
4FF#	.	(16E#XLL	.	(16BLL	.	(16g#LL	.	#viio
.	.	16F#)	.	16c#)	.	16a)	.	.
.	.	(16E#	.	(16B	.	(16g#	.	.
.	.	16F#J)	.	16c#J)	.	16aJ)	.	.
8r	.	8C#'J	.	8AJ	.	8f#J	.	i64
=26	=26	=26	=26	=26	=26	=26	=26	=26
4FF#	.	(4C#	.	(4A	.	(4f#	.	.
8r	.	8F#)	.	8c#)	.	8a)	.	i
4FF#	.	(16E#XLL	.	(16BLL	.	(16g#LL	.	#viio
.	.	16F#)	.	16c#)	.	16a)	.	.
.	.	(16BB	.	(16d	.	(16b	.	.
.	.	16C#)	.	16c#)	.	16a)	.	.
8r	.	(16D	.	(16B	.	(16g#	.	.
.	.	16C#JJ)	.	16AJJ)	.	16f#JJ)	.	.
=27	=27	=27	=27	=27	=27	=27	=27	=27
4FF#	.	(4C#	.	(4A	.	(4f#	.	i
8r	.	16DLL	.	16BLL	.	16g#LL	.	.
.	.	16C#JJ)	.	16AJJ)	.	16f#JJ)	.	.
4FF#	.	(4C#	.	(4A	.	(4f#	.	.
8r	.	16DLL	.	16BLL	.	16g#LL	.	.
.	.	16C#JJ)	.	16AJJ)	.	16f#JJ)	.	.
=28	=28	=28	=28	=28	=28	=28	=28	=28
4FF#	.	4C#	.	4A	.	4f#	.	i]\\
8r	f	(8a	.	8r	.	8r	.	.
4AAA	.	8b-XL	f	4r	.	4r	.	vi.V9
.	.	8gX	>	.	.	.	.	.
8r	.	8fXJ)	]]	8r	.	8r	.	.
=29	=29	=29	=29	=29	=29	=29	=29	=29
4AAA	p	(8eL	p	2.r	.	2.r	.	V
.	.	8gX	.	.	.	.	.	.
8r	.	8dJ)	.	.	.	.	.	.
4AAA	.	(8c#L	.	.	.	.	.	.
.	.	8e	.	.	.	.	.	.
8r	.	8AJ)	.	.	.	.	.	.
=30	=30	=30	=30	=30	=30	=30	=30	=30
4AAA	.	(8B-XL	.	4r	.	4r	.	V9
.	.	8GX	.	.	.	.	.	.
8r	.	8FXJ)	.	8r	.	8r	.	.
4AAA	.	(8E-XL	.	4r	.	4r	.	.
.	.	8G	.	.	.	.	.	.
!	!LO:DY:a	!	!LO:DY:a	!	!	!	!	!
8r	sfp	8DJ	sfp	[8B-X	.	[8b-X	sfp	V9(4)
=31	=31	=31	=31	=31	=31	=31	=31	=31
4AAA	.	8C#L	.	(4B-]	.	(4b-]	.	V9
.	.	8E	.	.	.	.	.	.
8r	.	8GXJ)	.	8A)	.	8a)	.	V7
4AAA	.	(8E-XL	.	8r	.	8r	.	.
.	.	8G	.	8r	.	8r	.	.
!	!LO:DY:a	!	!LO:DY:a	!	!	!	!	!
8r	sfp	8DJ	sfp	[8B-X	.	[8b-X	sfp	V9(4)
=32	=32	=32	=32	=32	=32	=32	=32	=32
4AAA	.	8C#L	.	(4B-]	.	(4b-]	.	V9
.	.	8E	.	.	.	.	.	.
8r	.	8GXJ)	.	8A)	.	8a)	.	.
4AAA	.	(8E-XL	.	8r	.	8r	.	.
.	.	8G	.	8r	.	8r	.	.
!	!	!	!LO:DY:a	!	!	!	!	!
8r	.	8DJ	sfp sfp	[8B-X	.	[8b-X	sfp	V9(4)
=33	=33	=33	=33	=33	=33	=33	=33	=33
4AAA	.	8C#L	.	(8B-L]	.	(8b-L]	.	.
.	.	8E	.	8A	.	8a	.	V
8r	.	8BB-XJ)	.	[8gXJ)	.	[8ggXJ)	.	.
4AAA	.	(8AAL	.	(8gL]	.	(8ggL]	.	V7
.	.	8C#	.	8e	.	8ee	.	.
8r	.	8EJ)	.	8aJ)	.	8aaJ)	.	.
=34	=34	=34	=34	=34	=34	=34	=34	=34
!LO:TX:a:t=arco	!	!	!	!	!	!	!	!
!LO:TX:b:i:t=cresc.	!	!	!	!LO:TX:b:i:t=cresc.	!	!	!	!
8DDL	.	4D	.	8fXL	.	8ffX	.	i
(8FX	.	.	.	(8f	.	8r	.	.
8DJ	.	8r	.	8dJ)	.	8r	.	.
8BB-XL	.	8r	.	(8B-XL	.	4r	.	VI
8D	.	8r	.	8d	.	.	.	.
!	!	!	!LO:DY:a	!	!	!	!	!
8AAJ	sfp	[8fX	sfp sfp	8AJ	.	[8ff	sfp	i64
=35	=35	=35	=35	=35	=35	=35	=35	=35
8GG#L	.	(4f]	.	8G#L	.	(4ff]	.	#viio7/V
8BB	.	.	.	8B	.	.	.	.
8DJ)	.	8e)	.	8dJ)	.	8ee)	.	.
(8BB-XL	.	8r	.	(8B-XL	.	8r	.	VI
!	!	!	!LO:DY:a	!	!	!	!	!
8D	.	8r	sfp	8d	.	8r	.	.
8AAJ	sfp	[8fX	sfp	8AJ	.	[8ffX	sfp	i64
=36	=36	=36	=36	=36	=36	=36	=36	=36
8GG#L	.	(4f]	.	8G#L	.	4ff]	.	#viio7/V
8BB	.	.	.	8B	.	.	.	.
8DJ)	.	8e)	.	8dJ)	.	8ee	.	.
(8BB-XL	.	(8B-XL	.	8r	.	8r	.	VI
8D	.	8d	.	8r	.	8r	.	.
8AAJ)	.	8AJ)	.	[8fX	.	[8ffX	.	i64
=37	=37	=37	=37	=37	=37	=37	=37	=37
!LO:TX:b:i:t=cresc.	!	!LO:TX:a:i:t=cresc.	!	!LO:TX:b:i:t=cresc.	!	!LO:TX:b:i:t=cresc.	!	!
(8GG#L	.	(8G#L	.	(8fL]	.	(8ffL]	.	iii.#viio7
8BB	.	8B	.	8e	.	8ee	.	V43
8FFXJ	.	8FXJ	.	[8ddJ	.	[8dddJ	.	#viio2
8EEL	.	8EL	.	8ddL]	.	8dddL]	.	V7
8GG#	.	8G#	.	8b	.	8bb	.	.
8EEJ	.	8EJ	.	8eeJ	.	8eeeJ	.	.
=38	=38	=38	=38	=38	=38	=38	=38	=38
8FFXL	.	8FXL	.	8ddL	.	8dddL	.	ivo64
8AA	.	8A	.	8ccX	.	8cccX	.	VI6
[8FFJ	.	8DJ	.	8bJ	.	8bbJ	.	ii%43
8FFL]	.	8D#XL	.	8aL	.	8aaL	.	.Ger6
8EE	.	8E	.	8cc	.	8ccc	.	i64
8DD#XJ)	.	8F#J)	.	8aJ)	.	8aaJ)	.	#vii/V
=39	=39	=39	=39	=39	=39	=39	=39	=39
!	!	!	!LO:DY:a	!	!	!	!	!
4EE	p	4BB	p p	8g#	.	8gg#	p	V[V64
.	.	.	.	[4e	sf	8r	.	.
!	!LO:DY:a	!	!	!	!	!	!	!
8r	sf	(8BBT	.	.	.	(8g#	.	.
!LO:TX:a:t=pizz.	!	!	!	!	!LO:DY:a	!	!	!
4EE	p	4CX	.	(8eL]	sf	[4.a)	.	#viio2/V
.	.	.	.	8d#X	.	.	.	.
8r	.	8AA)	.	8f#J)	.	.	.	.
=40	=40	=40	=40	=40	=40	=40	=40	=40
4EE	.	4BB	.	4e	.	(8aL]	.	V64
.	.	.	.	.	.	8g#J)	.	.
!	!LO:DY:a	!	!LO:DY:a	!	!	!	!	!
8r	sf	(8BBT	sf	(8g#	.	[8ee	sf	.
4EE	.	4CX	.	4.a)	.	(8eeL]	.	#viio2
.	.	.	.	.	.	8dd#X	.	.
8r	.	8AA)	.	.	.	(8ff#J)	.	#viio43/V
=41	=41	=41	=41	=41	=41	=41	=41	=41
4EE	.	4BB	.	8g#	.	4ee)	.	V64
.	.	.	.	[4e	.	.	.	.
!	!LO:DY:a	!	!	!	!	!	!	!
8r	sf	(8BBT	.	.	.	(8g#	sf	.
4EE	.	4CX	.	8eL]	sf	4.a	.	#viio2/V
.	.	.	.	8d#X	.	.	.	.
8r	.	8AA)	.	8f#J	.	.	.	.
=42	=42	=42	=42	=42	=42	=42	=42	=42
4EE	.	4BB	.	4e	.	(8aL)	.	V64
.	.	.	.	.	.	8g#J)	.	.
!	!LO:DY:a	!	!LO:DY:a	!	!	!	!	!
8r	sf	(8BBT	sf	(8g#	.	[8ee	sf	.
4EE	.	4CX	.	4.a)	.	(8eeL]	.	#viio2/V
.	.	.	.	.	.	8dd#X	.	.
8r	.	8AA)	.	.	.	8ff#J)	.	#viio43/V
=43	=43	=43	=43	=43	=43	=43	=43	=43
!LO:TX:b:i:t=dim.	!	!LO:TX:b:i:t=dim.	!	!LO:TX:b:i:t=dim.	!	!LO:TX:b:i:t=dim.	!	!
4EE	.	(4BB	.	8g#L	.	8eeL	.	V64
.	.	.	.	8G#J	.	8eJ	.	.
8r	.	8CX	.	8r	.	8r	.	.
4EE	.	4BB	.	8r	.	8r	.	.
.	.	.	.	8G#	.	8e	.	.
8r	.	8C#)	.	8r	.	8r	.	.
=44	=44	=44	=44	=44	=44	=44	=44	=44
4EE	.	(4D	.	8r	.	8r	.	V2
.	.	.	.	8G#	.	8e	.	.
8r	.	8D#X	.	8r	.	8r	.	.
4EE	.	[4.E)	.	4r	.	8r	.	V]
.	.	.	.	.	.	16f#'LL	.	.
.	.	.	.	.	.	16g#'	.	.
8DD	.	.	.	8r	.	16a'	.	III.V2
.	.	.	.	.	.	16b'JJ	.	.
=45	=45	=45	=45	=45	=45	=45	=45	=45
.	.	.	.	.	.	(16qqa/LL	.	I6
!	!	!LO:TX:b:i:t=dol.	!	!	!	!LO:TX:b:i:t=dol.	!	!
.	.	.	.	.	.	16qqb/JJ)	.	.
4CC#	.	(4.E]	.	2.r	.	8b'L	.	.
.	.	.	.	.	.	8a'	.	.
8r	.	.	.	.	.	8g#'J	.	.
4DD	.	8E#XL	.	.	.	(8g#L	.	IV(4#2)
.	.	8F#)	.	.	.	8a)	.	IV
8r	.	8F#'J	.	.	.	8f#'J	.	.
=46	=46	=46	=46	=46	=46	=46	=46	=46
4EE	.	(8G#L	.	(8BL	.	[4.e	.	V7
.	.	8A	.	8c#	.	.	.	.
8r	.	8BJ	.	8dJ	.	.	.	.
8AAL	.	8A)	.	4c#)	.	8eL]	.	I
8EE	.	8r	.	.	.	16f#'L	.	.
.	.	.	.	.	.	16g#'	.	.
8DDJ	.	[8E	.	8r	.	16a'	.	V2
.	.	.	.	.	.	16b'JJ	.	.
=47	=47	=47	=47	=47	=47	=47	=47	=47
.	.	.	.	.	.	(16qqa/LL	.	I6
.	.	.	.	.	.	16qqb/JJ)	.	.
4CC#	.	(4.E]	.	2.r	.	8b'L	.	.
.	.	.	.	.	.	8a'	.	.
8r	.	.	.	.	.	8g#'J	.	.
4DD	.	8E#XL	.	.	.	(8g#L	.	IV(4#2)
.	.	8F#)	.	.	.	8a)	.	IV
8r	.	8F#'J	.	.	.	8f#'J	.	.
=48	=48	=48	=48	=48	=48	=48	=48	=48
4EE	.	(8G#L	.	(8BL	.	[4.e	.	V7
.	.	8A	.	8c#	.	.	.	.
8r	.	8BJ)	.	8dJ	.	.	.	.
4AA	.	8AL	.	4c#)	.	4e]	.	I\\
.	.	16F#'L	.	.	.	.	.	.
.	.	16G#'	.	.	.	.	.	.
8r	.	16A'	.	8r	.	8r	.	.
.	.	16B'JJ	.	.	.	.	.	.
=49	=49	=49	=49	=49	=49	=49	=49	=49
.	.	(16qqA/LL	.	.	.	.	.	.
!LO:TX:a:t=arco	!	!	!	!	!	!	!	!
.	.	16qqB/JJ)	.	.	.	.	.	.
8r	.	8B'L	.	4r	.	2.r	.	V2
16GG#'LL	.	8A'	.	.	.	.	.	.
16AA'	.	.	.	.	.	.	.	.
16BB'	.	8G#'J	.	8r	.	.	.	.
16C#'JJ	.	.	.	.	.	.	.	.
4D	.	(8G#L	.	8r	.	.	.	.
.	.	8A)	.	16f#'LL	.	.	.	.
.	.	.	.	16g#'	.	.	.	.
8DD	.	8G#'J	.	16a'	.	.	.	.
.	.	.	.	16b'JJ	.	.	.	.
=50	=50	=50	=50	=50	=50	=50	=50	=50
4.EE	.	[4.E	.	(4.g#	.	8r	.	V
.	.	.	.	.	.	16b'LL	.	.
.	.	.	.	.	.	16cc#'	.	.
.	.	.	.	.	.	16dd'	.	.
.	.	.	.	.	.	16ee'JJ	.	.
4AA	.	8EL]	.	4a)	.	4cc#	.	I
.	.	16F#'L	.	.	.	.	.	.
.	.	16G#'	.	.	.	.	.	.
8r	.	16A'	.	8r	.	8r	.	.
.	.	16B'JJ	.	.	.	.	.	.
=51	=51	=51	=51	=51	=51	=51	=51	=51
.	.	(16qqA/LL	.	.	.	.	.	.
.	.	16qqB/JJ)	.	.	.	.	.	.
8r	.	8B'L	.	4r	.	2.r	.	ii6
16GG#'LL	.	8A'	.	.	.	.	.	.
16AA'	.	.	.	.	.	.	.	.
16BB'	.	8G#'J	.	8r	.	.	.	.
16C#'JJ	.	.	.	.	.	.	.	.
4D	.	(8G#L	.	8r	.	.	.	.
.	.	8A)	.	16f#'LL	.	.	.	.
.	.	.	.	16g#'	.	.	.	.
8DD	.	8F#'J	.	16a'	.	.	.	.
.	.	.	.	16b'JJ	.	.	.	.
=52	=52	=52	=52	=52	=52	=52	=52	=52
!	!	!	!	!LO:TX:b:i:t=cresc.	!	!	!	!
4.EE	.	[4.E	.	8cc#L	.	8r	.	V(64)
!	!	!	!	!	!	!LO:TX:b:i:t=cresc.	!	!
.	.	.	.	16cc#'L	.	16ee'LL	.	.
.	.	.	.	16dd'	.	16ff#'	.	.
.	.	.	.	16b'	.	16gg#'	.	.
.	.	.	.	16cc#'JJ	.	16aa'JJ	.	.
!LO:TX:b:i:t=cresc.	!	!LO:TX:b:i:t=cresc.	!	!	!	!	!	!
4.EE	.	8EL]	.	8dd	.	16bb'LL	.	V7
.	.	.	.	.	.	16ccc#'	.	.
.	.	8D	.	8r	.	16ddd'	.	.
.	.	.	.	.	.	16eee'	.	.
.	.	8BB'J	.	8E 8d	.	16fff#'	.	.
.	.	.	.	.	.	16ggg#'JJ	.	.
=53	=53	=53	=53	=53	=53	=53	=53	=53
!	!LO:DY:a	!	!LO:DY:a	!	!	!	!	!
4AAA	p p	(8AAL	p	(8EL 8c#	.	(4aaa	p	I\\
.	.	8E	.	8e	.	.	.	.
!LO:TX:a:t=pizz.	!	!	!	!	!	!	!	!
8r	.	8AJ)	.	8aJ)	.	8eee	.	.
4AA	.	(8DL	.	(8dL	.	8fffXL	.	vi.V[i
.	.	8BB	.	8B	.	8ddd	.	.
8r	.	8G#J)	.	8g#J)	.	8eeeJ)	.	V6/V
=54	=54	=54	=54	=54	=54	=54	=54	=54
4AA	.	(8EL	.	(8eL	.	(4ccc#	.	V64
.	.	8C#	.	8c#	.	.	.	.
8r	.	8AJ)	.	8aJ)	.	8aa	.	.
4AA	.	(8DL	.	(8dL	.	8ffXL	.	i
.	.	8BB	.	8B	.	8dd	.	.
8r	.	8G#J)	.	8g#J)	.	8eeJ)	.	V6/V
=55	=55	=55	=55	=55	=55	=55	=55	=55
4AAA	.	(8EL	.	4a 4c#	.	(4cc#	.	V
.	.	8C#	.	.	.	.	.	.
8r	.	8AJ)	.	8r	.	8a	.	.
4AAA	.	(8DL	.	4r	.	8fXL	.	i
.	.	8BB	.	.	.	8d	.	.
8r	.	8G#J)	.	8r	.	8eJ)	.	V6/V
=56	=56	=56	=56	=56	=56	=56	=56	=56
4AAA	.	(8C#L	.	4r	.	4c#	.	V6
.	.	8E	.	.	.	.	.	.
!	!	!	!	!	!LO:DY:a	!	!	!
8r	.	[8FXJ)	sfp	8r	sfp	(8A	.	.
4AAA	.	(8FL]	.	4r	.	4.G#) 4.B	.	viio2/V
.	.	8D	.	.	.	.	.	.
8r	.	8EJ)	.	[8e	p	.	.	.
=57	=57	=57	=57	=57	=57	=57	=57	=57
4AAA	.	(8C#L	.	8e]	.	4A 4c#	.	V6
.	.	8E	.	8r	.	.	.	.
!	!LO:DY:a	!	!	!	!LO:DY:a	!	!	!
8r	sfp	[8FXJ)	.	8r	sfp	(8A	.	.
4AAA	.	(8FL]	.	4r	.	4.G#) 4.B	.	viio2/V
.	.	8D	.	.	.	.	.	.
8r	.	8EJ)	.	[8e	.	.	.	.
=58	=58	=58	=58	=58	=58	=58	=58	=58
4AAA	.	(8C#L	.	8e]	.	4A 4c#	.	V6
.	.	8E	.	8r	.	.	.	.
!	!	!	!	!	!LO:DY:a	!	!	!
8r	.	[8FXJ)	sfp	8r	sfp	(8A	.	.
4AAA	.	(8FL]	.	4r	.	4.G#) 4.B	.	viio2/V
.	.	8D	.	.	.	.	.	.
8r	.	8EJ)	.	[8e	.	.	.	.
=59	=59	=59	=59	=59	=59	=59	=59	=59
!LO:TX:b:i:t=dim.	!	!LO:TX:b:i:t=dim.	!	!LO:TX:b:i:t=dim.	!	!LO:TX:b:i:t=dim.	!	!
4AAA	.	(8C#L	.	8eL]	.	(4A 4c#	.	V6
.	.	8E	.	(8E	.	.	.	.
8r	.	8DJ)	.	8FXJ	.	8G# 8B	.	viio43/V
4AAA	.	(8C#L	.	8E)	.	4A 4c#	.	V6
.	.	8E	.	8r	.	.	.	.
8r	.	8DJ)	.	(8F	.	8G#) 8B	.	viio43/V
=60	=60	=60	=60	=60	=60	=60	=60	=60
4AAA	.	(8C#L	.	8E)	.	(4A 4c#	.	V6
.	.	8E	.	8r	.	.	.	.
8r	.	8DJ)	.	8FX	.	8G# 8B	.	viio43/V
4AAA	.	(8C#L	.	4E	.	4A 4c#	.	V6
.	.	8E	.	.	.	.	.	.
8r	.	8DJ)	.	(8F	.	8G#) 8B	.	viio43/V
=61	=61	=61	=61	=61	=61	=61	=61	=61
!	!	!	!LO:DY:a	!	!LO:DY:a	!	!	!
4AAA	pp	4C#	pp pp	4E)	pp	4A 4c#	.	V
8r	.	8r	.	8r	.	8r	.	.
4AAA	.	4C#	.	4E	.	4A	.	.
8r	.	8r	.	8r	.	8r	.	.
=62	=62	=62	=62	=62	=62	=62	=62	=62
8AAA	.	4C#	.	4E	.	4A	.	V]\\
8r	.	.	.	.	.	.	.	.
!LO:TX:a:t=arco	!	!	!	!	!	!	!	!
(8C#	.	8r	.	8r	.	8r	.	.
8EL	sfp	4r	.	4r	.	4r	.	V
8C#	.	.	.	.	.	.	.	.
8AAJ)	.	8r	.	8r	.	8r	.	.
=63	=63	=63	=63	=63	=63	=63	=63	=63
(8BB-XL	.	4r	.	4r	.	2.r	.	VI6
8GGX	.	.	.	.	.	.	.	.
8FFXJ)	.	8r	.	8r	.	.	.	.
(8EE-XL	.	8r	.	8r	.	.	.	.
8GG	.	8r	sfp	8r	sfp	.	.	.
8DDJ	sfp	[8BB-X	.	[8B-X	.	.	.	.
=64	=64	=64	=64	=64	=64	=64	=64	=64
8CC#L	.	(4BB-]	.	(4B-]	.	4r	.	#viio7
8EE	.	.	.	.	.	.	.	.
8GGXJ)	.	8AA)	.	8A)	.	8r	.	V2
(8EE-XL	.	8r	.	8r	.	8r	.	iv
8GG	.	8r	.	8r	.	4r	.	.
!	!LO:DY:a	!	!LO:DY:a	!	!	!	!	!
8DDJ	sfp sfp	[8BB-X	sfp	[8B-X	.	.	.	.
=65	=65	=65	=65	=65	=65	=65	=65	=65
8CC#L	.	(4BB-]	.	(4B-]	.	4r	.	#viio7
8EE	.	.	.	.	.	.	.	.
8GGXJ)	.	8AA)	.	8A)	.	8r	.	V2
(8EE-XL	.	8r	.	8r	.	8r	.	.bII
8GG	.	8r	.	8r	.	8r	.	.
8DDJ	.	[8BB-X	.	[8B-X	.	8r	.	iv64
=66	=66	=66	=66	=66	=66	=66	=66	=66
8CC#L	.	(8BB-L]	.	(8B-L]	.	4r	.	#viio7
8EE	.	8AA	.	8A	.	.	.	.
8BBB-XJ	.	[8GXJ)	.	[8gXJ)	.	8r	.	iv6
8AAAL	.	(8GL]	.	(8gL]	.	8r	.	V7
8CC#	.	8E	.	8e	.	4r	.	.
8EEJ)	.	8AJ)	.	8aJ)	.	.	.	.
=67	=67	=67	=67	=67	=67	=67	=67	=67
8DD	.	8FX	.	8fX	.	2.r	.	i
8r	.	(8AL	.	8r	.	.	.	.
8r	.	8c#J	.	8r	.	.	.	.
4r	.	8dL	.	4r	.	.	.	.
.	.	8A	.	.	.	.	.	.
8r	.	8GXJ)	.	8r	.	.	.	.
=68	=68	=68	=68	=68	=68	=68	=68	=68
!LO:TX:a:t=pizz.	!	!	!	!	!	!	!	!
4r	.	(8FXL	.	4r	.	4r	.	i6
.	.	8A	.	.	.	.	.	.
8r	.	8EJ)	.	8r	.	8r	.	.
8r	.	(8DL	.	8r	.	8r	.	i
8r	.	8F	.	8r	.	8r	.	.
!	!LO:DY:a	!	!	!	!	!	!	!
8GGX	sf sfp	8CXJ	.	[8fX	sfp	[8a-X	sfp	.bv.V9(4)
=69	=69	=69	=69	=69	=69	=69	=69	=69
4GGX	p	8BBL	.	4f_	.	(4a-]	.	V9
.	.	8D	.	.	.	.	.	.
8r	.	8FXJ)	.	8f]	.	8gX)	.	V7
8r	.	(8DL	.	8r	.	8r	.	.
8r	.	8F	.	8r	.	8r	.	.
!	!LO:DY:a	!	!	!	!	!	!	!
8GG	sf sfp	8CXJ	.	[8fX	sfp	[8a-X	sfp	V9(4)
=70	=70	=70	=70	=70	=70	=70	=70	=70
4GGX	p	8BBL	.	4.f]	.	4a-]	.	V9
.	.	8D	.	.	.	.	.	.
8r	.	8FXJ)	.	.	.	8gX	.	V7
8r	.	(8DL	.	8r	.	8r	.	.
8r	.	8F	.	8r	.	8r	.	.
!	!	!	!	!	!LO:DY:a	!	!	!
8GG	sf	8CXJ	sfp	[8fX	sfp sfp	[8a-X	.	V9(4)
=71	=71	=71	=71	=71	=71	=71	=71	=71
4GGX	p	8BBL	.	4f]	.	(8a-L]	.	V9
.	.	8D	.	.	.	8gX	.	V7
8r	.	8FXJ)	.	[8fX	.	[8ffXJ)	.	.
4GG	.	(8BBL	.	(8fL]	.	(8ffL]	.	.
.	.	8D	.	8d	.	8dd	.	.
8r	.	8G#J)	.	8gXJ)	.	(8ggXJ)	.	.
=72	=72	=72	=72	=72	=72	=72	=72	=72
!LO:TX:a:t=arco	!	!	!	!	!	!	!	!
[2.GGX	.	(8CXL	.	8e-X	.	8ee-X)	.	i64
.	.	8E-X	.	8r	.	8r	.	.
.	.	[8GXJ)	.	8r	.	[8gX	.	.
.	.	(8GL]	.	4r	.	(8gL]	.	.
.	.	8E-	.	.	.	8ccX	.	.
.	.	8CJ)	.	8r	.	8ee-J)	.	.
=73	=73	=73	=73	=73	=73	=73	=73	=73
2.GG_	.	(8BBL	.	2.r	.	(8ffXL	.	V7
.	.	8D	.	.	.	8dd	.	.
.	.	[8GXJ)	.	.	.	[8gXJ)	.	.
.	.	(8GL]	.	.	.	(8gL]	.	.
.	.	8FX	.	.	.	8b	.	.
.	.	8DJ)	.	.	.	8ddJ)	.	.
=74	=74	=74	=74	=74	=74	=74	=74	=74
4GG]	.	(8CXL	.	4r	.	(8ee-XL	.	i64
.	.	8E-X	.	.	.	8ccX	.	.
[8GGX	.	[8GXJ)	.	([8GX	.	[8gXJ)	.	.
(8GGL]	.	4.G_	.	8GL]	.	4.g_	.	.
8EE-X	.	.	.	8cX	.	.	.	.
8CCXJ)	.	.	.	8e-XJ)	.	.	.	.
=75	=75	=75	=75	=75	=75	=75	=75	=75
(8BBBL	.	2.G_	.	(8fXL	.	2.g_	.	V65
8DD	.	.	.	8d	.	.	.	.
[8GGXJ)	.	.	.	[8GXJ)	.	.	.	.
(8GGL]	.	.	.	(8GL]	.	.	.	.
8FFX	.	.	.	8B	.	.	.	.
8DDJ)	.	.	.	8dJ)	.	.	.	.
=76	=76	=76	=76	=76	=76	=76	=76	=76
(8CCXL	.	4G]	.	(8e-XL	.	4g]	.	i
8EE-X	.	.	.	8cX	.	.	.	.
!LO:TX:b:i:t=cresc.	!	!LO:TX:b:i:t=cresc.	!	!LO:TX:b:i:t=cresc.	!	!LO:TX:b:i:t=cresc.	!	!
8GGXJ)	.	[8E-X	.	[8GXJ)	.	[8gX	.	.
(8CXL	.	4.E-]	.	(8GL]	.	(8gL]	.	.
8GG	.	.	.	8c	.	8ccX	.	.
8EE-J)	.	.	.	8e-J)	.	8ee-XJ)	.	.
=77	=77	=77	=77	=77	=77	=77	=77	=77
(8CXL	.	[4.D	.	(8F#L	.	(8f#L	.	.bii.V2
8AA	.	.	.	8A	.	8a	.	.
8FF#J)	.	.	.	[8dJ)	.	8ddJ	.	.
(8AAL	.	(8DL]	.	4.F# 4.d]	.	8dL	.	V43
8FF#	.	8A	.	.	.	8a	.	.
8DDJ)	.	8cXJ)	.	.	.	8ccXJ)	.	V7
=78	=78	=78	=78	=78	=78	=78	=78	=78
!	!	!	!LO:DY:a	!	!	!	!	!
(8BB-XL	p	8B-X	p p	4GX 4d	.	8b-X	p	i6
8GGX	.	8r	.	.	.	8r	.	.
[8DDJ)	.	([8B-	.	8r	.	[8dd	.	.
4.DD_	.	8B-L]	.	4r	.	(8ddL]	.	i64
.	.	8GX	.	.	.	8ggX	.	.
.	.	[8DJ	.	8r	.	8bb-XJ)	.	.
=79	=79	=79	=79	=79	=79	=79	=79	=79
2.DD_	.	8DL]	.	2.r	.	(8cccXL	.	V7
.	.	8A	.	.	.	8aa	.	.
.	.	([8cXJ)	.	.	.	[8ddJ)	.	.
.	.	8cL]	.	.	.	(8ddL]	.	.
.	.	8A	.	.	.	8ff#	.	.
.	.	[8DJ	.	.	.	8aaJ)	.	.
=80	=80	=80	=80	=80	=80	=80	=80	=80
4DD]	.	8DL]	.	8r	.	(8bb-XL	.	i64
.	.	8GX	.	8r	.	8ggX	.	.
([8BB-X	.	8B-XJ)	.	[8d	.	[8ddJ)	.	.
8BB-L]	.	[4.D	.	(8dL]	.	4.dd_	.	i6
8GGX	.	.	.	8gX	.	.	.	.
[8DDJ	.	.	.	8b-XJ)	.	.	.	.
=81	=81	=81	=81	=81	=81	=81	=81	=81
8DDL]	.	2.D_	.	(8ccXL	.	2.dd_	.	V7
8AA	.	.	.	8a	.	.	.	.
[8CXJ)	.	.	.	[8dJ)	.	.	.	.
(8CL]	.	.	.	(8dL]	.	.	.	.
8AA	.	.	.	8f#	.	.	.	.
[8DDJ)	.	.	.	8aJ)	.	.	.	.
=82	=82	=82	=82	=82	=82	=82	=82	=82
(8DDL]	.	4D]	.	(8b-XL	.	4dd]	.	i64
8GGX	.	.	.	8gX	.	.	.	.
!LO:TX:b:i:t=cresc.	!	!LO:TX:b:i:t=cresc.	!	!LO:TX:b:i:t=cresc.	!	!LO:TX:b:i:t=cresc.	!	!
[8BB-XJ)	.	[8GX	.	[8dJ)	.	[8dd	.	.
(8BB-L]	.	4.G_	.	(8dL]	.	(8ddL]	.	i6
8GG	.	.	.	8g	.	8ggX	.	.
8DDJ)	.	.	.	8b-J)	.	8bb-XJ)	.	.
=83	=83	=83	=83	=83	=83	=83	=83	=83
(8AAL	.	4AA 4G_	.	(8c#L	.	(8cc#L	.	vi.V7
8EE	.	.	.	8e	.	8ee	.	.
8CC#J)	.	8r	.	8aJ)	.	8aaJ)	.	.
(8EEL	.	4G]	.	(8AL	.	(8aL	.	V43
8CC#	.	.	.	8e	.	8ee	.	.
8AAAJ)	.	8E	.	8gXJ)	.	8ggXJ)	.	.
=84	=84	=84	=84	=84	=84	=84	=84	=84
!	!LO:DY:a	!	!	!	!	!	!	!
(8DDL	f f	4AA 4FX	.	4fX	f	4ffX	f	i
8FFX	.	.	.	.	.	.	.	.
!	!	!	!LO:DY:a	!	!LO:DY:a	!	!	!
8AAJ	sf	([8A	sf sf	[8d	sf	[8fX	.	.
8DL	>	4A]	>	4.d_	>	4.f_	>	.
8FX	.	.	.	.	.	.	.	.
8DJ)	.	8B-X	.	.	.	.	.	.
=85	=85	=85	=85	=85	=85	=85	=85	=85
(8BB-XL	.	4.G#	.	4.d_	.	4.f_	.	.Ger6
8D	.	.	.	.	.	.	.	.
8BBJ	.	.	.	.	.	.	.	.
8GG#L	]	4.B)	]	4d]	]	4f]	]	#iv%7
8BB	.	.	.	.	.	.	.	.
8EEJ)	.	.	.	8d	.	8e	.	V7/v
=86	=86	=86	=86	=86	=86	=86	=86	=86
!	!LO:DY:a	!	!LO:DY:a	!	!	!	!	!
4AA	f f	(8AAL	f	4cX	.	8e	f	iii.i
.	.	8CX	.	.	.	8r	.	.
8r	.	8EJ	.	([8e	sf	[8a [8ccX	sf	.
4r	.	8AL	>	4e]	>	4.a_ 4.cc_	>	i
.	.	8cX	.	.	.	.	.	.
8r	.	8AJ	.	8fX	.	.	.	.
=87	=87	=87	=87	=87	=87	=87	=87	=87
4r	.	8FXL	.	4.d#X	.	4.a_ 4.cc_	.	.Ger6
.	.	8A	.	.	.	.	.	.
8r	.	8F#J	.	.	.	.	.	.
4r	.	8D#XL	.	4.f#)	]]	4a] 4cc]	.	viio7/V
.	.	8F#	.	.	.	.	.	.
[8BBB	p	8BBJ)	]]	.	.	8a 8b	]]	V7/V
=88	=88	=88	=88	=88	=88	=88	=88	=88
!	!LO:DY:a	!	!	!	!	!	!	!
(8BBBL]	p	[2.BB	.	4e	p	8gX 8b	p	vii.i64
8EE	.	.	.	.	.	8r	.	.
[8GGXJ)	.	.	.	8r	.	[8b	.	i6
(8GGL]	.	.	.	4r	.	(8bL]	.	.
8EE	.	.	.	.	.	8ee	.	.
[8BBBJ)	.	.	.	8r	.	8ggXJ)	.	i64
=89	=89	=89	=89	=89	=89	=89	=89	=89
(8BBBL]	.	2.BB_	.	2.r	.	(8aaL	.	V7
8FF#	.	.	.	.	.	8ff#	.	.
[8AAJ)	.	.	.	.	.	[8bJ)	.	V2
(8AAL]	.	.	.	.	.	(8bL]	.	.
8FF#	.	.	.	.	.	8dd#X	.	.
[8BBBJ)	.	.	.	.	.	8ff#J)	.	V7
=90	=90	=90	=90	=90	=90	=90	=90	=90
(8BBBL]	.	4BB]	.	4r	.	(8ggXL	.	i64
8EE	.	.	.	.	.	8ee	.	.
8GGXJ)	.	[8BB	.	[8B	.	[8bJ)	.	.
!LO:TX:a:t=pizz.	!	!	!	!	!	!	!	!
4EE	.	(8BBL]	.	(8BL]	.	4.b_	.	i
.	.	8E	.	8e	.	.	.	.
8r	.	8GXJ)	.	8gXJ)	.	.	.	.
=91	=91	=91	=91	=91	=91	=91	=91	=91
4DD#X	.	(8AL	.	(8aL	.	2.b_	.	V7
.	.	8F#	.	8f#	.	.	.	.
8r	.	[8BBJ)	.	[8BJ)	.	.	.	.
4BBB	.	(8BBL]	.	(8BL]	.	.	.	.
.	.	8D#X	.	8d#X	.	.	.	.
8r	.	8F#J)	.	8f#J)	.	.	.	.
=92	=92	=92	=92	=92	=92	=92	=92	=92
!LO:TX:a:t=arco	!	!	!	!	!	!	!	!
(8EEL	f	4GX	f	4gX	f	8b]	f	i
8GGX	.	.	.	.	.	8r	.	.
8CXJ	.	8r	.	8r	.	[8ee	sf	.
8EL	.	4r	.	4r	.	(8eeL]	.	iv.bII6
8GX	.	.	.	.	.	8ccX	.	.
8EJ)	.	[8e	sf	[8g	sf	8bJ)	.	iv
=93	=93	=93	=93	=93	=93	=93	=93	=93
8r	p	4.e_	p	4.g_	p	(4a#X	p	#viio43
(8EL	.	.	.	.	.	.	.	.
8C#J)	.	.	.	.	.	8cc#)	.	#viio65
8r	.	(8eL]	.	(8gL]	.	(4cc#	.	.
(8AA#XL	.	8c#	.	8f#)	.	.	.	.
8FF#J)	.	8F#J)	.	8f#J	.	8ee)	.	V7
=94	=94	=94	=94	=94	=94	=94	=94	=94
!	!LO:DY:a	!	!	!	!	!	!	!
4BB	f f	(8BBL	.	8f#	f	4dd	f	i
.	.	8E	.	8r	.	.	.	.
8r	.	8GXJ	.	[8b	sf	8rg	.	.
4r	.	8BL	.	(8bL]	.	4r	.	VI6
.	.	8d	.	8gX	.	.	.	.
!	!	!	!	!	!LO:DY:a	!	!	!
8r	.	8BJ)	.	8f#J)	sfp	[8dd [8b	.	.
=95	=95	=95	=95	=95	=95	=95	=95	=95
!LO:TX:a:t=pizz.	!	!	!	!	!	!	!	!
4r	p	8r	p	(4e#X	p	4.dd_ 4.b_	.	i.#viio7
.	.	(8BL	.	.	.	.	.	.
8r	.	8G#J)	.	8g#)	.	.	.	.
8r	.	8r	.	(4g#	.	(8ddL] 4b]	.	.
8r	.	(8E#XL	.	.	.	8cc#)	.	.
8CC#	.	8C#J)	.	8b)	.	8cc#J 8e#X	.	V7
=96	=96	=96	=96	=96	=96	=96	=96	=96
4FF#	.	8F#L	.	(8aL	.	(4cc#	.	i
.	.	(8F#	.	8f#	.	.	.	.
8r	.	8G#J	.	8g#J	.	[8ff#	.	.
4DD	.	8AL	.	8aL	.	4ff#]	.	VI
.	.	8F#	.	8f#	.	.	.	.
8r	.	8DJ)	.	8dJ)	.	8b#X)	.	.It6
=97	=97	=97	=97	=97	=97	=97	=97	=97
!	!	!	!	!	!	!LO:TX:b:i:t=cresc.	!	!
4CC#	.	(8C#L	.	(8c#L	.	[2.cc#	.	V7
.	.	8E#X	.	8e#X	.	.	.	.
8r	.	8G#J)	.	8g#J)	.	.	.	.
8r	.	(8C#L	.	(8c#L	.	.	.	.
8r	.	8G#	.	8g#	.	.	.	.
8EE#X	sf	8BJ)	sf	8bJ)	sf	.	.	.
=98	=98	=98	=98	=98	=98	=98	=98	=98
4FF#	p	(8AL	p	(8aL	p	(8cc#L]	p	i
.	.	8F#	.	8f#	.	8ff#	.	.
8r	.	8G#J	.	8g#J	.	8ee#XJ	.	.
4DD	.	8AL	.	8aL	.	4ff#	.	VI
.	.	8F#	.	8f#	.	.	.	.
8r	.	8DJ)	.	8dJ)	.	8b#X)	.	.It6
=99	=99	=99	=99	=99	=99	=99	=99	=99
!	!	!	!	!	!	!LO:TX:b:i:t=cresc.	!	!
4CC#	.	(8C#L	.	(8c#L	.	[2.cc#	.	V7
.	.	8E#X	.	8e#X	.	.	.	.
8r	.	8G#J)	.	8g#J)	.	.	.	.
8r	.	(8C#L	.	(8c#L	.	.	.	.
8r	.	8G#	.	8g#	.	.	.	.
8EE#X	sf	8BJ)	sf	8bJ)	sf	.	.	.
=100	=100	=100	=100	=100	=100	=100	=100	=100
4FF#	p	(8AL	p	(8aL	p	(8cc#L]	p	i
.	.	8F#	.	8f#	.	8ff#	.	.
8r	.	8G#J	.	8g#J	.	8ee#XJ	.	.
4DD	.	8AL	.	8aL	.	4ff#	.	VI
.	.	8F#	.	8f#	.	.	.	.
8r	.	8DJ)	.	8dJ)	.	8b#X)	.	.It6
=101	=101	=101	=101	=101	=101	=101	=101	=101
4CC#	.	(8C#L	.	(8c#L	.	([4.cc#	<	V
.	.	8E#X	.	8e#X	.	.	.	.
8r	.	8G#J)	.	8g#J)	.	.	.	.
8r	.	(8AL	sf	(8aL	sf	4cc#]	>	V(64)
8DD	.	8F#	.	8f#	.	.	.	.
8r	.	8DJ)	.	8dJ)	.	8b#X)	] ]]	.It6
=102	=102	=102	=102	=102	=102	=102	=102	=102
4CC#	.	(8C#L	.	(8c#L	.	([4.cc#	<	V
.	.	8E#X	.	8e#X	.	.	.	.
8r	.	8G#J)	.	8g#J)	.	.	.	.
8r	.	(8AL	sf	(8aL	sf	4cc#]	>	V(64)
8r	.	8F#	.	8f#	.	.	.	.
8DD	.	8DJ)	.	8dJ)	.	8b#X)	] ]]	.It6
=103	=103	=103	=103	=103	=103	=103	=103	=103
!LO:TX:b:i:t=dim.	!	!LO:TX:b:i:t=dim.	!	!LO:TX:b:i:t=dim.	!	!LO:TX:b:i:t=dim.	!	!
4CC#	.	(8C#L	.	(8c#L	.	8cc#	.	V\\
.	.	8E#X	.	8e#X	.	8r	.	.
8r	.	8G#J)	.	8g#J)	.	8c#	.	V
4CC#	.	(8C#L	.	(8c#L	.	8r	.	.
.	.	8E#	.	8e#	.	8r	.	.
8r	.	8G#J)	.	8g#J)	.	8c#	.	.
=104	=104	=104	=104	=104	=104	=104	=104	=104
4CC#	.	(8C#L	.	(8c#L	.	8r	.	.
.	.	8E#X	.	8e#X	.	8r	.	.
8r	.	8G#J)	.	8g#J)	.	8c#	.	.
4CC#	.	[4.C#	.	8c#	.	8r	.	.
!	!	!	!	!	!	!LO:TX:b:i:t=dol.	!	!
.	.	.	.	8r	.	16d#X'LL	.	.
.	.	.	.	.	.	16e#X'	.	.
8BBB	.	.	.	8r	.	16f#'	.	V2
.	.	.	.	.	.	16g#'JJ	.	.
=105	=105	=105	=105	=105	=105	=105	=105	=105
.	.	.	.	.	.	(16qqf#/LL	.	I.I
.	.	.	.	.	.	16qqg#/JJ)	.	.
4AAA#X	.	(4.C#]	.	2.r	.	8a#X'L	.	.
.	.	.	.	.	.	8g#'	.	.
8r	.	.	.	.	.	8f#'J	.	.
4BBB	.	8C##XL	.	.	.	(8e#XL	.	IV
.	.	8D#X)	.	.	.	8f#)	.	.
8r	.	8D#'J	.	.	.	8d#X'J	.	.
=106	=106	=106	=106	=106	=106	=106	=106	=106
4CC#	.	(8E#XL	.	(8G#L	.	[4.c#	.	V7
.	.	8F#	.	8A#X	.	.	.	.
8r	.	8G#J	.	8BJ	.	.	.	.
4FF#	.	4F#)	.	4A#)	.	16c#LL]	.	I
.	.	.	.	.	.	16cc#'	.	.
.	.	.	.	.	.	16dd#X'	.	.
.	.	.	.	.	.	16ee#X'	.	.
8r	.	8r	.	8r	.	16ff#'	.	.
.	.	.	.	.	.	16gg#'JJ	.	.
=107	=107	=107	=107	=107	=107	=107	=107	=107
.	.	.	.	.	.	(16qqff#/LL	.	I6
.	.	.	.	.	.	16qqgg#/JJ)	.	.
4AAA#X	.	(4.C#	.	(4.c#	.	8aa#X'L	.	.
.	.	.	.	.	.	8gg#'	.	.
8r	.	.	.	.	.	8ff#'J	.	.
4BBB	.	8C##XL	.	8c##XL	.	(8ee#XL	.	IV
.	.	8D#X)	.	8d#X)	.	8ff#)	.	.
8r	.	8D#'J	.	8d#'J	.	8dd#X'J	.	.
=108	=108	=108	=108	=108	=108	=108	=108	=108
4CC#	.	(8E#XL	.	(8G#L	.	[4.cc#	.	V7
.	.	8F#	.	8A#X	.	.	.	.
8r	.	8G#J	.	8BJ	.	.	.	.
4FF#	.	8F#L)	.	4.A#)	.	4cc#]	.	I\\
.	.	16D#X'L	.	.	.	.	.	.
.	.	16E#'	.	.	.	.	.	.
8r	.	16F#'	.	.	.	8r	.	.
.	.	16G#'JJ	.	.	.	.	.	.
=109	=109	=109	=109	=109	=109	=109	=109	=109
.	.	(16qqF#/LL	.	.	.	.	.	.
!LO:TX:a:t=arco	!	!	!	!	!	!	!	!
.	.	16qqG#/JJ)	.	.	.	.	.	.
8r	.	8A#X'L	.	4r	.	2.r	.	IV
16EE#X'LL	.	8G#'	.	.	.	.	.	.
16FF#'	.	.	.	.	.	.	.	.
16GG#'	.	8F#'J	.	8r	.	.	.	.
16AA#X'JJ	.	.	.	.	.	.	.	.
4.BB	.	(8E#XL	.	8r	.	.	.	.
.	.	8F#)	.	16d#X'LL	.	.	.	.
.	.	.	.	16e#X'	.	.	.	.
.	.	8D#X'J	.	16f#'	.	.	.	.
.	.	.	.	16g#'JJ	.	.	.	.
=110	=110	=110	=110	=110	=110	=110	=110	=110
4.C#	.	[4.C#	.	(4.e#X	.	8r	.	V7
.	.	.	.	.	.	16g#'LL	.	.
.	.	.	.	.	.	16a#X'	.	.
.	.	.	.	.	.	16b'	.	.
.	.	.	.	.	.	16cc#'JJ	.	.
4FF#	.	8C#L]	.	8f#)	.	8a#	.	I
.	.	16D#X'L	.	8r	.	8r	.	.
.	.	16E#X'	.	.	.	.	.	.
8r	.	16F#'	.	8r	.	8r	.	.
.	.	16G#'JJ	.	.	.	.	.	.
=111	=111	=111	=111	=111	=111	=111	=111	=111
.	.	(16qqF#/LL	.	.	.	.	.	.
.	.	16qqG#/JJ)	.	.	.	.	.	.
8r	.	8A#X'L	.	4r	.	2.r	.	IV
16EE#X'LL	.	8G#'	.	.	.	.	.	.
16FF#'	.	.	.	.	.	.	.	.
16GG#'	.	8F#'J	.	8r	.	.	.	.
16AA#X'JJ	.	.	.	.	.	.	.	.
4BB	.	(8E#XL	.	8r	.	.	.	.
.	.	8F#)	.	16d#X'LL	.	.	.	.
.	.	.	.	16e#X'	.	.	.	.
8BBB	.	8D#X'J	.	16f#'	.	.	.	.
.	.	.	.	16g#'JJ	.	.	.	.
=112	=112	=112	=112	=112	=112	=112	=112	=112
!LO:TX:b:i:t=cresc.	!	!LO:TX:b:i:t=cresc.	!	!LO:TX:b:i:t=cresc.	!	!LO:TX:b:i:t=cresc.	!	!
(4CC#	.	(4C#	.	[8a#XL	.	8r	.	V(64)
.	.	.	.	16a#'L]	.	16cc#'LL	.	.
.	.	.	.	16b'	.	16dd#X'	.	.
[8C#)	.	[8c#)	.	16g#'	.	16ee#X'	.	.
.	.	.	.	16a#'JJ	.	16ff#'JJ	.	.
(8C#L]	.	(8c#L]	.	8b	.	16gg#'LL	.	.
.	.	.	.	.	.	16aa#X'	.	.
8BB)	.	8B)	.	8r	.	16bb'	.	V43
.	.	.	.	.	.	16ccc#'	.	.
8GG#'J	.	8G#'J	.	8c# 8b	.	16ddd#X'	.	.
.	.	.	.	.	.	16eee#X'JJ	.	.
=113	=113	=113	=113	=113	=113	=113	=113	=113
4FF#	p	8F#L	p	8c#L 8a#X	p	(4fff#	p	I[I
.	.	(8F#	.	(8f#	.	.	.	.
8r	.	8A#XJ	.	8a#J	.	8ccc#	.	.
!LO:TX:a:t=pizz.	!	!	!	!	!	!	!	!
4FF#	.	8G#L	.	8g#L	.	8dddL	.	#viio7
.	.	8E#X	.	8e#X	.	8bb	.	.
8r	.	8BJ)	.	8bJ)	.	8ccc#J)	.	.
=114	=114	=114	=114	=114	=114	=114	=114	=114
4FF#	.	(8F#L	.	(8f#L	.	(4aa#X	.	I
.	.	8C#	.	8c#	.	.	.	.
8r	.	8A#XJ	.	8a#XJ	.	8ff#	.	.
4FF#	.	8E#XL	.	8e#XL	.	8ddL	.	#viio7
.	.	8BB	.	8B	.	8b	.	.
8r	.	8G#J)	.	8g#J)	.	8cc#J)	.	V
=115	=115	=115	=115	=115	=115	=115	=115	=115
!LO:TX:b:i:t=cresc.	!	!LO:TX:b:i:t=cresc.	!	!LO:TX:b:i:t=cresc.	!	!LO:TX:b:i:t=cresc.	!	!
4FF#	.	(8C#L	.	(8c#L	.	(4a#X	.	I64
.	.	8AA#X	.	8A#X	.	.	.	.
8r	.	8F#J)	.	8f#J)	.	8f#	.	I
4FF#	.	(8BBL	.	8r	.	8dL	.	#viio43
.	.	8D	.	8E#XL	.	8B	.	.
8r	.	8C#J)	.	8E#J	.	8c#J)	.	V
=116	=116	=116	=116	=116	=116	=116	=116	=116
!LO:TX:b:i:t=dim.	!	!LO:TX:b:i:t=dim.	!	!LO:TX:b:i:t=dim.	!	!LO:TX:b:i:t=dim.	!	!
4FF#	.	(4AA#X	.	8r	.	(4c#	.	I6
.	.	.	.	(8F#L	.	.	.	.
8r	.	8BB)	.	8E#XJ)	.	8d	.	#viio43
4FF#	.	(4AA#	.	8r	.	4c#	.	I6
.	.	.	.	(8F#L	.	.	.	.
8r	.	8BB)	.	8E#J)	.	8d)	.	#viio43
=117	=117	=117	=117	=117	=117	=117	=117	=117
4FF#	.	(4AA#X	.	8r	.	(4c#	.	I6
.	.	.	.	(8F#L	.	.	.	.
8r	.	8BB)	.	8E#XJ)	.	8d	.	#viio43
4FF#	.	(4AA#	.	8r	.	4c#	.	I6
.	.	.	.	(8F#L	.	.	.	.
8r	.	8BB)	.	8E#J)	.	8d)	.	#viio43
=118	=118	=118	=118	=118	=118	=118	=118	=118
!	!LO:DY:a	!	!LO:DY:a	!	!	!	!	!
4FF#	pp pp	4BB	pp	4F#	.	4d	pp	iv64
8r	.	8r	.	8r	.	8r	.	.
8r	.	4r	.	8r	.	8r	.	.
!LO:TX:a:t=arco	!	!	!	!	!	!	!	!
8F#L	.	.	.	8BL	.	8dL	.	iv64]
8F#J	.	8r	.	8BJ	.	8dJ	.	.
=119	=119	=119	=119	=119	=119	=119	=119	=119
4GX	.	4r	.	4B	.	4d	.	.bII
8r	.	8r	.	8r	.	8r	.	.
!	!	!	!	!LO:TX:b:i:t=cresc.	!	!LO:TX:b:i:t=cresc.	!	!
8r	.	8r	.	8r	.	8r	.	.
!LO:TX:b:i:t=cresc.	!	!LO:TX:b:i:t=cresc.	!	!	!	!	!	!
8GL	.	8GXL	.	8BL	.	8dL	.	.bV.V
8GJ	.	8GJ	.	8BJ	.	8dJ	.	.
=120	=120	=120	=120	=120	=120	=120	=120	=120
!	!LO:DY:a	!	!LO:DY:a	!	!LO:DY:a	!	!	!
4FX	f f	4GX 4d	f	4GX 4B	f	8gX'L	.	V2
.	.	.	.	.	.	16g'L	.	.
.	.	.	.	.	.	16a'	.	.
8r	.	8r	.	8rg	.	16b'	.	.
.	.	.	.	.	.	16ccX'JJ	.	.
4r	.	4r	.	4r	.	8dd'L	.	.
.	.	.	.	.	.	16b'L	.	.
.	.	.	.	.	.	16cc'	.	.
8r	.	8r	.	8r	.	16dd'	.	.
.	.	.	.	.	.	16ee'JJ	.	.
=121	=121	=121	=121	=121	=121	=121	=121	=121
!	!	!	!	!	!	!LO:TX:b:i:t=dim.	!	!
4r	.	2.r	.	2.r	.	8ffX'L	.	.
.	.	.	.	.	.	16dd'L	.	.
.	.	.	.	.	.	16ee'	.	.
8r	.	.	.	.	.	16ff'	.	.
.	.	.	.	.	.	16ggX'JJ	.	.
8r	.	.	.	.	.	16aa'LL	.	.
.	.	.	.	.	.	16gg'	.	.
16r	.	.	.	.	.	16aa'	.	.
16AA'LL	p	.	.	.	.	16bb'	.	.
16GGX'	.	.	.	.	.	16cccX'	.	.
16FFX'JJ	.	.	.	.	.	16ddd'JJ	.	.
=122	=122	=122	=122	=122	=122	=122	=122	=122
.	.	.	.	.	.	(16qqcccX/LL	p	I6
.	.	.	.	.	.	16qqddd/JJ)	.	.
!	!	!	!LO:DY:a	!	!	!	!	!
4EE	.	4r	p	(4.GX	.	8eee'L	.	.
.	.	.	.	.	.	8ddd'	.	.
8r	.	8r	.	.	.	8ccc'J	.	.
4FFX	.	8r	.	8G#L	.	(8bbL	.	IV(4#2)
.	.	8r	.	8A)	.	8ccc)	.	IV
8r	.	8FX'	p	8A'J	.	8aa'J	.	.
=123	=123	=123	=123	=123	=123	=123	=123	=123
4.GGX	.	(8DL	.	(8BL	.	[4.ggX	.	V7
.	.	8E	.	8cX	.	.	.	.
.	.	8FXJ	.	8dJ	.	.	.	.
8CXL	.	4E)	.	4c)	.	8ggL]	.	I
16BB'L	.	.	.	.	.	16aa'L	.	.
16AA'	.	.	.	.	.	16bb'	.	.
16GG'	.	8r	.	8r	.	16cccX'	.	.
16FFX'JJ	.	.	.	.	.	16ddd'JJ	.	.
=124	=124	=124	=124	=124	=124	=124	=124	=124
.	.	.	.	.	.	(16qqcccX/LL	.	I6
.	.	.	.	.	.	16qqddd/JJ)	.	.
4EE	.	4r	.	(4.GX	.	8eee'L	.	.
.	.	.	.	.	.	8ddd'	.	.
8r	.	8r	.	.	.	8ccc'J	.	.
4FFX	.	4r	.	8G#L	.	(8bbL	.	IV(4#2)
.	.	.	.	8A)	.	8ccc)	.	IV
8r	.	8FX	.	8A'J	.	8aa'J	.	.
=125	=125	=125	=125	=125	=125	=125	=125	=125
!LO:TX:b:i:t=cresc.	!	!LO:TX:b:i:t=cresc.	!	!LO:TX:b:i:t=cresc.	!	!LO:TX:a:i:t=cresc.	!	!
4.GGX	.	(8DL	.	(8BL	.	[4.ggX	.	V7
.	.	8E	.	8cX	.	.	.	.
.	.	8FXJ	.	8dJ	.	.	.	.
4.GG	.	4GX	.	4e	.	(16ggLL]	.	V(64)
.	.	.	.	.	.	16ffX	.	.
.	.	.	.	.	.	16ee	.	.
.	.	.	.	.	.	16ff	.	.
.	.	8F)	.	8d)	.	16dd	.	V7
.	.	.	.	.	.	16eeJJ)	.	.
=126	=126	=126	=126	=126	=126	=126	=126	=126
4CCX	p	(8EL	p	(8cXL	p	(16ccXLL	p	I[I6
.	.	.	.	.	.	16b	.	.
.	.	8GX	.	8e	.	16cc	.	.
.	.	.	.	.	.	16dd	.	.
8r	.	8EJ	.	8cJ	.	16ee	.	.
.	.	.	.	.	.	16ffXJJ)	.	.
!LO:TX:a:t=pizz.	!	!	!	!	!	!	!	!
4CC	.	8BL	.	8dL	.	(16ddLL	.	V65
.	.	.	.	.	.	16ee	.	.
.	.	8G	.	8B	.	16ff	.	.
.	.	.	.	.	.	16ggX	.	.
8r	.	8dJ)	.	8fXJ)	.	16ee	.	.
.	.	.	.	.	.	16ffJJ)	.	.
=127	=127	=127	=127	=127	=127	=127	=127	=127
4CCX	.	(8cXL	.	(8eL	.	(16ggXLL	.	I
.	.	.	.	.	.	16aa	.	.
.	.	8GX	.	8cX	.	16bb	.	.
.	.	.	.	.	.	16cccX	.	.
8r	.	8eJ)	.	8gXJ)	.	16ddd	.	.
.	.	.	.	.	.	16eeeJJ)	.	.
4CC	.	(8BL	.	(8dL	.	(16fffXLL	.	V65
.	.	.	.	.	.	16eee	.	.
.	.	8G	.	8B	.	16fff	.	.
.	.	.	.	.	.	16ddd	.	.
8r	.	8dJ)	.	8fXJ)	.	16eee	.	.
.	.	.	.	.	.	16fffJJ)	.	.
=128	=128	=128	=128	=128	=128	=128	=128	=128
4CCX	.	(8cXL	sfp	(8eL	sfp	[4.gggX	sfp	I
.	.	8GX	.	8cX	.	.	.	.
!	!LO:DY:a	!	!	!	!	!	!	!
8r	sf	[8EJ)	.	[8GXJ)	.	.	.	.
4CC	p	(8EL]	.	(8GL]	.	(16gggLL]	.	I6
.	.	.	.	.	.	16fffX	.	.
.	.	8D	.	8B	.	16eee	.	viio6
.	.	.	.	.	.	16ddd	.	.
8r	.	[8FXJ)	.	[8dJ)	.	16fff	.	.
.	.	.	.	.	.	16eeeJJ)	.	.
=129	=129	=129	=129	=129	=129	=129	=129	=129
4CCX	.	(8FL]	.	(8dL]	.	(16dddLL	.	V2
.	.	.	.	.	.	16cccX	.	.
.	.	8E	.	8cX	.	16bb	.	I6]
.	.	.	.	.	.	16aa	.	.
8r	.	[8GXJ)	.	[8eJ)	.	16ggX	.	.
.	.	.	.	.	.	16ffXJJ)	.	.
8CC	.	(8GL]	.	(8eL]	.	(16eeLL	.	V(64)
.	.	.	.	.	.	16gg	.	.
8r	.	8B	.	8d	.	16ff	.	.
.	.	.	.	.	.	16ee	.	.
8GX	.	8BJ)	.	8fXJ)	.	16dd	.	V7
.	.	.	.	.	.	16eeJJ)	.	.
=130	=130	=130	=130	=130	=130	=130	=130	=130
8cXL	fp	[2.cX	fp	[2.e	fp	(4.ccX	fp	I\\
8B	.	.	.	.	.	.	.	.
8AJ	.	.	.	.	.	.	.	.
8GXL	.	.	.	.	.	[4.ee)	.	I64
8A	.	.	.	.	.	.	.	.
8FXJ	.	.	.	.	.	.	.	.
=131	=131	=131	=131	=131	=131	=131	=131	=131
!LO:TX:b:i:t=dim.	!	!LO:TX:b:i:t=dim.	!	!LO:TX:b:i:t=dim.	!	!LO:TX:b:i:t=dim.	!	!
8EL	.	(4.c]	.	(4.e]	.	(4.ee]	.	I6
8D	.	.	.	.	.	.	.	.
8CXJ	.	.	.	.	.	.	.	.
8BBL	.	[4.e)	.	[4.gX)	.	[4.cccX)	.	I
8C	.	.	.	.	.	.	.	.
8AAJ	.	.	.	.	.	.	.	.
=132	=132	=132	=132	=132	=132	=132	=132	=132
8GGXL	.	(4.e]	.	(4.g]	.	(4.ccc]	.	I64
8FFX	.	.	.	.	.	.	.	.
8EEJ	.	.	.	.	.	.	.	.
8DDL	.	[4.gX)	.	4.ccX)	.	[4.eee)	.	I
8CCX	.	.	.	.	.	.	.	.
8BBBJ	.	.	.	.	.	.	.	.
=133	=133	=133	=133	=133	=133	=133	=133	=133
8AAA#XL	.	(4.g]	.	[2.cc#	.	2.eee_	.	V65/iv
8CC#	.	.	.	.	.	.	.	.
8BBBJ	.	.	.	.	.	.	.	.
8AAA#L	.	4.f#)	.	.	.	.	.	.
8CC#	.	.	.	.	.	.	.	.
8AAA#J	.	.	.	.	.	.	.	.
=134	=134	=134	=134	=134	=134	=134	=134	=134
!LO:TX:b:i:t=sempre dim.	!	!LO:TX:b:i:t=sempre dim.	!	!LO:TX:b:i:t=sempre dim.	!	!LO:TX:b:i:t=sempre dim.	!	!
8BBBL	.	[2.f#	.	(4.cc#]	.	(4.eee]	.	iv(94)
8AAA#X	.	.	.	.	.	.	.	.
8BBBJ	.	.	.	.	.	.	.	.
8AAA#L	.	.	.	[4.b)	.	[4.ddd)	.	iv
8BBB	.	.	.	.	.	.	.	.
8AAA#J	.	.	.	.	.	.	.	.
=135	=135	=135	=135	=135	=135	=135	=135	=135
8BBBL	.	4.f#]	.	4.b]	.	4.ddd]	.	.
8AAA#X	.	.	.	.	.	.	.	.
8BBBJ	.	.	.	.	.	.	.	.
8AAA#L	pp	(4.f#	pp	(4.b	pp	[4.dd	pp	.
8BBB	.	.	.	.	.	.	.	.
8BBBJ	.	.	.	.	.	.	.	.
=136	=136	=136	=136	=136	=136	=136	=136	=136
8CC#L	.	4.e#X)	.	4.g#)	.	4.dd]	.	V7(+9)
8BBB#X	.	.	.	.	.	.	.	.
8CC#J	.	.	.	.	.	.	.	.
8BBB#L	.	(4.e#	.	(4.g#	.	[4.cc#	.	V7
8CC#	.	.	.	.	.	.	.	.
8BBB#J	.	.	.	.	.	.	.	.
=137	=137	=137	=137	=137	=137	=137	=137	=137
8CC#L	.	4.f#	.	4.a	.	2.cc#_	.	#vi7
8BBB#X	.	.	.	.	.	.	.	.
8CC#J	.	.	.	.	.	.	.	.
8BBB#L	.	4.d#X	.	4.f#	.	.	.	.
8CC#	.	.	.	.	.	.	.	.
8BBB#J	.	.	.	.	.	.	.	.
=138	=138	=138	=138	=138	=138	=138	=138	=138
4CC#	.	4e#X)	.	4g#)	.	4cc#]	.	V6
8r	.	8r	.	8r	.	8r	.	.
4CC#	.	4r	.	4r	.	4r	.	.
8r	.	8r	.	8r	.	8r	.	.
=139	=139	=139	=139	=139	=139	=139	=139	=139
4CC#	.	2.r	.	2.r	.	2.r	.	.
8r	.	.	.	.	.	.	.	.
4CC#	.	.	.	.	.	.	.	.
8r	.	.	.	.	.	.	.	.
=140	=140	=140	=140	=140	=140	=140	=140	=140
4CC#	f	2.r	.	8r	.	[2.cc#	fp	i
.	.	.	.	8r	.	.	.	.
8r	.	.	.	(8c#	p	.	.	.
4CC#	p	.	.	8f#L	.	.	.	.
.	.	.	.	8g#	.	.	.	.
8r	.	.	.	8f#J)	.	.	.	.
=141	=141	=141	=141	=141	=141	=141	=141	=141
4CC#	.	4r	.	(8g#L	.	2.cc#_	.	V7
.	.	.	.	8f#	.	.	.	.
8r	.	8r	.	8e#XJ	.	.	.	.
4CC#	.	(8BL	p	8dL	.	.	.	.
.	.	8c#	.	8c#	.	.	.	.
8r	.	8dJ	.	8BJ)	.	.	.	.
=142	=142	=142	=142	=142	=142	=142	=142	=142
4CC#	.	8c#L	.	(8AL	.	4.cc#]	.	i64
.	.	8B	.	8G#	.	.	.	.
8r	.	8AJ)	.	8F#J)	.	.	.	.
4CC#	.	(8E#XL	.	[4.c#	.	(8bL	.	V65
.	.	8F#	.	.	.	8a	.	.
8r	.	8G#J)	.	.	.	8g#J	.	.
=143	=143	=143	=143	=143	=143	=143	=143	=143
4CC#	.	(8F#L	.	4.c#_	.	8aL	.	i
.	.	8G#	.	.	.	8g#	.	.
8r	.	8AJ	.	.	.	8f#J)	.	i6
4CC#	.	8BL	.	(8c#L]	.	(4cc# 4cc#	.	#viio6]
.	.	8A	.	8d#X	.	.	.	.
8r	.	8G#J)	.	8e#XJ)	.	8b\	.	#viio6]
=144	=144	=144	=144	=144	=144	=144	=144	=144
8FF#L	.	4F#	.	4f#	.	4a) 4cc#	.	i
8GG#	.	.	.	.	.	.	.	.
!LO:TX:b:i:t=cresc.	!	!	!	!	!	!	!	!
8FF#J	.	8r	.	8r	.	8r	.	.
8EE#XL	.	4r	.	4r	.	4r	.	.
8FF#	.	.	.	.	.	.	.	.
8EEJ	.	8r	.	8r	.	8r	.	.
=145	=145	=145	=145	=145	=145	=145	=145	=145
8DDL	.	2.r	.	2.r	.	2.r	.	.
8CC#	.	.	.	.	.	.	.	.
8BBBJ	.	.	.	.	.	.	.	.
8AAAL	.	.	.	.	.	.	.	.
8BBB	.	.	.	.	.	.	.	.
8BBB#XJ	.	.	.	.	.	.	.	.
=146	=146	=146	=146	=146	=146	=146	=146	=146
!	!	!	!LO:DY:a	!	!	!	!	!
4CC#	f	4r	fp	[2.c#	.	8r	.	V[V
.	.	.	.	.	.	8r	.	.
8r	.	8r	.	.	.	(8cc#	.	.
4CC#	p	(8AL	.	.	.	8ff#L	.	i6
.	.	8G#	.	.	.	8gg#	.	.
8r	.	8F#J)	.	.	.	8aaJ)	.	i
=147	=147	=147	=147	=147	=147	=147	=147	=147
4CC#	.	(8E#XL	.	4.c#]	.	(8gg#L	.	V65
.	.	8F#	.	.	.	8ff#	.	.
8r	.	8G#J)	.	.	.	8ee#XJ	.	.
4CC#	.	(8BL	.	(8dL	.	8ddL	.	.
.	.	8A	.	8c#	.	8cc#	.	.
8r	.	8G#J	.	8BJ	.	8bJ)	.	.
=148	=148	=148	=148	=148	=148	=148	=148	=148
4CC#	.	8F#L	.	8AL	.	(8aL	.	i
.	.	8E#X	.	8G#	.	8g#	.	.
8r	.	8F#J)	.	8F#J)	.	8f#J)	.	.
4CC#	.	(8E#L	.	(8G#L	.	[4.cc#	.	V6
.	.	8F#	.	8A	.	.	.	.
8r	.	8G#J	.	8BJ	.	.	.	.
=149	=149	=149	=149	=149	=149	=149	=149	=149
4CC#	.	8F#L	.	8AL	.	4.cc#_	.	i
.	.	8E	.	8G#	.	.	.	.
8r	.	8DJ)	.	8F#J	.	.	.	.
4CC#	.	(4C#	.	8E#XL	.	(8cc#L]	.	V7
.	.	.	.	8F#	.	8dd#X	.	.
8r	.	8BB	.	8G#J	.	8ee#XJ	.	#viio64]
=150	=150	=150	=150	=150	=150	=150	=150	=150
!LO:TX:a:i:t=cresc.	!	!	!	!	!	!	!	!
8FF#L	.	4AA)	.	4F#)	.	4ff#)	.	i\\
8GG#	.	.	.	.	.	.	.	.
8FF#J	.	8r	.	8r	.	8r	.	.
8EE#XL	.	4r	.	4r	.	4r	.	.
8FF#	.	.	.	.	.	.	.	.
8EEJ	.	8r	.	8r	.	8r	.	.
=151	=151	=151	=151	=151	=151	=151	=151	=151
!	!	!	!	!	!LO:DY:a	!	!	!
8DDL	.	2.r	.	2.r	p	4r	.	.
8EE	.	.	.	.	.	.	.	.
8DDJ	.	.	.	.	.	8r	.	.
8CC#L	.	.	.	.	.	4r	.	.
8DD	.	.	.	.	.	.	.	.
8BBBJ	.	.	.	.	.	(8g#	.	III.viio6
=152	=152	=152	=152	=152	=152	=152	=152	=152
4AAA	.	8r	.	8r	.	[4.a)	.	I
.	.	8r	.	8r	.	.	.	.
!	!LO:DY:a	!	!	!	!	!	!	!
8r	p	8C#	p	(8A	.	.	.	.
4AA	p	(8GXL	.	8eL	.	4a]	.	V7/IV
.	.	8F#	.	8f#	.	.	.	.
8r	.	8C#J)	.	8gXJ)	.	8a	.	.
=153	=153	=153	=153	=153	=153	=153	=153	=153
4DD	.	(8EL	.	(8gXL	.	(8cc#L	.	IV(974)
.	.	8D)	.	8f#)	.	8dd)	.	IV
8r	.	8DJ	.	8f#J	.	8ddJ	.	.
4FF#	.	(8EL	.	(8c#L	.	8r	.	V7/ii
.	.	8D	.	8d	.	8r	.	.
8r	.	8AA#XJ)	.	8eJ)	.	(8f#	.	.
=154	=154	=154	=154	=154	=154	=154	=154	=154
4BBB	.	(8C#L	.	(8eL	.	8a#XL	.	ii(9#74)
.	.	8BBJ)	.	8dJ)	.	8bJ)	.	ii
8r	.	(8F#	.	(8f#	.	[8ff#	.	.
4BB	f	8dL	fp	8bL	fp	4.ff#_	fp	ii
.	.	8c#	.	8cc#	.	.	.	.
8r	.	8BJ	.	8ddJ	.	.	.	.
=155	=155	=155	=155	=155	=155	=155	=155	=155
4FF#	p	8A#XL	.	8cc#L	.	2.ff#_	.	V7/ii
.	.	8GX	.	8b	.	.	.	.
8r	.	8F#J	.	8a#XJ	.	.	.	.
4FF#	.	8EL	.	8gXL	.	.	.	.
.	.	8D	.	8f#	.	.	.	.
8r	.	8C#J)	.	8eJ)	.	.	.	.
=156	=156	=156	=156	=156	=156	=156	=156	=156
4BB	.	(8BBL	.	(8dL	.	8ff#L]	.	ii
.	.	8C#	.	8c#	.	(8a#X	.	.
8r	.	8DJ)	.	8BJ)	.	8bJ)	.	.
4CC#	.	(8G#L	.	(4.e#X	.	(8BL	.	i.V7
.	.	8A	.	.	.	8c#	.	.
8r	.	8BJ	.	.	.	8dJ	.	.
=157	=157	=157	=157	=157	=157	=157	=157	=157
!LO:TX:a:t=arco	!	!	!	!	!	!	!	!
4FF#	.	8AL	.	4f#)	.	8c#L	.	i
.	.	8G#	.	.	.	8B	.	.
8FF#	.	8F#J)	.	8f#	.	8AJ)	.	.
!	!LO:DY:a	!	!	!	!	!	!	!
(8AAL	sfp sfp	[4.C#	.	(8f#L	sfp	((4.d#X 4.b#X	sfp	#viio2/V
8GG#	.	.	.	8g#	.	.	.	.
8FF#J)	.	.	.	8aJ	.	.	.	.
=158	=158	=158	=158	=158	=158	=158	=158	=158
4.CC#	.	4.C#]	.	8g#L	.	4.e#X)) 4.cc#	.	V
.	.	.	.	8e#X	.	.	.	.
.	.	.	.	8c#J)	.	.	.	.
4.CC#	.	(8G#L	.	(4.e#	.	(8BL	.	V7
.	.	8A	.	.	.	8c#	.	.
.	.	8BJ	.	.	.	8dJ	.	.
=159	=159	=159	=159	=159	=159	=159	=159	=159
4.FF#	.	8AL	.	4f#)	.	8c#L	.	i\\
.	.	8G#	.	.	.	8B	.	.
.	.	8F#J)	.	8f#	.	8AJ)	.	.
!	!LO:DY:a	!	!	!	!	!	!	!
(8AAL	sfp sfp	[4.C#	.	(8f#L	sfp	((4.d#X 4.b#X	sfp	#viio2/V
8GG#	.	.	.	8g#	.	.	.	.
8FF#J)	.	.	.	8aJ	.	.	.	.
=160	=160	=160	=160	=160	=160	=160	=160	=160
4.CC#	.	4.C#]	.	8g#L	.	4.e#X)) 4.cc#	.	V
.	.	.	.	8e#X	.	.	.	.
.	.	.	.	8c#J)	.	.	.	.
!	!LO:DY:a	!	!	!	!	!	!	!
(8AAL	sfp sfp	[4.C#	.	(8f#L	sfp	((4.d#X 4.b#X	sfp	#viio2/V
8GG#	.	.	.	8g#	.	.	.	.
8FF#J)	.	.	.	8aJ	.	.	.	.
=161	=161	=161	=161	=161	=161	=161	=161	=161
4.CC#	.	4.C#]	.	8g#L	.	4.e#X)) 4.cc#	.	V
.	.	.	.	8e#X	.	.	.	.
.	.	.	.	8c#J)	.	.	.	.
!LO:TX:b:i:t=cresc.	!	!LO:TX:b:i:t=cresc.	!	!LO:TX:b:i:t=cresc.	!	!LO:TX:b:i:t=cresc.	!	!
(8DL	.	(8G#L	.	(8bL	.	4.e#	.	V2
8C#	.	8A	.	8cc#	.	.	.	.
8BBJ)	.	8BJ)	.	8ddJ)	.	.	.	.
=162	=162	=162	=162	=162	=162	=162	=162	=162
(4AA	p	(4A	p	(4cc#	p	8f#	p	i6
.	.	.	.	.	.	[4ff#	.	VI
8D	.	8D	.	8f#	.	.	.	.
4BB	.	4d	.	4a	.	8ff#L]	.	iv7
.	.	.	.	.	.	(8ff#	.	.
8C#)	.	8G#)	.	8g#)	.	8ee#XJ)	.	V
=163	=163	=163	=163	=163	=163	=163	=163	=163
!LO:TX:b:i:t=cresc.	!	!LO:TX:b:i:t=cresc.	!	!LO:TX:b:i:t=cresc.	!	!LO:TX:b:i:t=cresc.	!	!
(4D	.	(8BL	.	(4g#	.	4ee#X	.	#viio2
.	.	8E#X	.	.	.	.	.	.
8C#	.	8F#J	.	8a	.	8r	.	.
8BBL	.	8G#L	.	8bL	.	4r	.	#viio43
8AA	.	8A	.	8cc#	.	.	.	.
8GG#J)	.	8BJ)	.	8ddJ)	.	(8e#X	.	#viio65
=164	=164	=164	=164	=164	=164	=164	=164	=164
8AA	f	(8AL	f	(8cc#L	f	8f#)	f	i6
8r	>	8F#	>	8a)	>	[4ff#	>	VI
8DD	.	[8DJ)	.	8f#'J	.	.	.	.
!LO:TX:a:t=pizz.	!	!	!	!	!	!	!	!
4BBB	.	8DL]	.	4a	.	8ff#L]	.	iv7
.	.	8d	.	.	.	(8ff#	.	.
8CC#	]]	8C#J 8B	]]	8g#	]]	8ee#XJ)	]]	V7
=165	=165	=165	=165	=165	=165	=165	=165	=165
8FF#L	p	4C# 4A	p	4f#	p	4ff#	p	i\\
8EE	.	.	.	.	.	.	.	.
8CC#J	.	8r	.	8r	.	8r	.	.
8EEL	.	4r	.	4r	.	4r	.	.
8DD	.	.	.	.	.	.	.	.
8BBBJ	.	8r	.	(8G#	.	8r	.	III.viio6
=166	=166	=166	=166	=166	=166	=166	=166	=166
4AAA	.	4r	.	[2.A)	.	8r	.	I
.	.	.	.	.	.	8r	.	.
8A	.	8c#	p	.	.	(8a	.	.
8GXL	.	(8c#L	.	.	.	8eeL	.	V2/IV
8F#	.	8d	.	.	.	8ff#	.	IV6
8C#J	.	8eJ)	.	.	.	8ggXJ)	.	V65/IV
=167	=167	=167	=167	=167	=167	=167	=167	=167
8C#L	.	(8eL	.	4A]	.	(8ggXL	.	V65/IV
8D	.	8d	.	.	.	8ff#)	.	IV
8DJ	.	8AJ)	.	8d	.	8ff#'J	.	.
8EL	.	(8A#XL	.	(8c#L	.	(4.ff#	.	V65/ii
8D	.	8B	.	8d	.	.	.	.
8AA#XJ	.	8c#J)	.	8eJ)	.	.	.	.
=168	=168	=168	=168	=168	=168	=168	=168	=168
8AA#XL	.	(8c#L	.	(8eL	.	4ff#)	.	.
8BB	.	8B)	.	8d)	.	.	.	.
8BBJ	.	8BJ	.	(8dJ	.	(8ff#	.	ii
8DL	fp	[4.F#	fp	8bL	fp	8bbL	fp	ii6
8C#	.	.	.	8cc#	.	8ccc#	.	.
8BBJ	.	.	.	8ddJ)	.	8dddJ)	.	ii
=169	=169	=169	=169	=169	=169	=169	=169	=169
8AA#XL	.	4.F#_	.	(8cc#L	.	(8ccc#L	.	V65/ii
8GGX	.	.	.	8b	.	8bb	.	.
8FF#J	.	.	.	8a#XJ	.	8aa#XJ	.	.
8EEL	.	(8F#L]	.	8gXL	.	8ggXL	.	.
8DD	.	8G#	.	8f#	.	8ff#	.	.
8CC#J	.	8A#XJ)	.	8eJ)	.	8eeJ)	.	#viio6/ii
=170	=170	=170	=170	=170	=170	=170	=170	=170
8BBBL	.	(8BL	.	(8dL	.	(8ddL	.	i.iv
8CC#	.	8A#X	.	8c#	.	8cc#	.	.
8DDJ	.	8F#J)	.	8BJ)	.	8bJ)	.	iv6
8CC#L	.	(8G#L	.	(8BL	.	(4.ee#X	.	V7
8C#	.	8A	.	8c#	.	.	.	.
8CC#J	.	8BJ	.	8dJ	.	.	.	.
=171	=171	=171	=171	=171	=171	=171	=171	=171
8C#L	.	8AL	.	8c#L	.	4ff#)	.	i64
8FF#	.	8G#	.	8B	.	.	.	.
8FF#J	.	8F#J)	.	8AJ)	.	8ff#	.	i
8AAL	sfp	(4.B#X	sfp	(4.d#X	sfp	(8ff#L	sfp	#viio2/V
8GG#	.	.	.	.	.	8gg#	.	.
8FF#J	.	.	.	.	.	8aaJ	.	#viio43/V
=172	=172	=172	=172	=172	=172	=172	=172	=172
8CC#L	.	4.c#)	.	4.e#X)	.	8gg#L	.	V
8EE#X	.	.	.	.	.	8ee#X	.	.
8GG#J	.	.	.	.	.	8cc#J)	.	.
8C#L	.	(8G#L	.	(8bL	.	(4.ee#	.	V7
8CC#	.	8A	.	8cc#	.	.	.	.
8C#J	.	8BJ	.	8ddJ	.	.	.	.
=173	=173	=173	=173	=173	=173	=173	=173	=173
8FF#L	.	8AL	.	8cc#L	.	4ff#)	.	i
8C#	.	8G#	.	8b	.	.	.	.
8FF#J	.	8F#J)	.	8aJ)	.	8ff#	.	.
8AAL	sf	(4.B#X	sfp	(4.d#X	sfp	(8ff#L	sfp	#viio2/V
8GG#	.	.	.	.	.	8gg#	.	.
8FF#J	p	.	.	.	.	8aaJ	.	#viio43/V
=174	=174	=174	=174	=174	=174	=174	=174	=174
8CC#L	.	4.c#)	.	4.e#X)	.	8gg#L	.	V
8EE#X	.	.	.	.	.	8ee#X	.	.
8GG#J	.	.	.	.	.	8cc#J)	.	.
8AAL	sf	(4.B#X	sfp	(4.d#X	sfp	(8ff#L	sfp	#viio2/V
8GG#	.	.	.	.	.	8gg#	.	.
8FF#J	p	.	.	.	.	8aaJ	.	#viio43/V
=175	=175	=175	=175	=175	=175	=175	=175	=175
8CC#L	.	4.c#)	.	4.e#X)	.	8gg#L	.	V
8EE#X	.	.	.	.	.	8ee#X	.	.
8GG#J	.	.	.	.	.	8cc#J)	.	.
!LO:TX:b:i:t=cresc.	!	!LO:TX:b:i:t=cresc.	!	!LO:TX:a:i:t=cresc.	!	!LO:TX:b:i:t=cresc.	!	!
8DL	.	4.G#	.	4.e#	.	(8bbL	.	#viio2
8C#	.	.	.	.	.	8ccc#	.	V
8BBJ	.	.	.	.	.	8dddJ)	.	#viio64
=176	=176	=176	=176	=176	=176	=176	=176	=176
8AAL	p	(4A	p	(4f#	p	(4ccc#	p	i6
8AAA	.	.	.	.	.	.	.	.
8DDJ	.	[8F#	.	8f#	.	8ff#	.	VI
8BBBL	.	4F#]	.	4a	.	4aa	.	iv7
8BB	.	.	.	.	.	.	.	.
8CC#J	.	8E#X)	.	8g#)	.	8gg#)	.	V
=177	=177	=177	=177	=177	=177	=177	=177	=177
!LO:TX:b:i:t=cresc.	!	!LO:TX:b:i:t=cresc.	!	!LO:TX:b:i:t=cresc.	!	!LO:TX:a:i:t=cresc.	!	!
8DDL	.	(4E#X	.	(4g#	.	(4gg#	.	#viio2
8D	.	.	.	.	.	.	.	.
8C#J	.	8F#	.	8a	.	8aa	.	i64
8BBL	.	8G#L	.	8bL	.	8bbL	.	#viio64
8AA	.	8A	.	8cc#	.	8ccc#	.	i6
8GG#J	.	8E#J) 8B	.	8ddJ)	.	8dddJ)	.	#viio65
=178	=178	=178	=178	=178	=178	=178	=178	=178
!	!	!	!LO:DY:a	!	!	!	!	!
8AAAL	f	4F#	f f >	(8cc#L	.	(8ccc#L	f	i6
8AA	>	.	.	8a)	>	8aa)	>	.
8DJ	.	[8D	.	(8f#J	.	8ff#'J	.	VI
8BBL	.	(8DL]	.	(4f#)	.	(4aa	.	iv7
8BBB	.	8d	.	.	.	.	.	.
8CC#J	]	8G#J)	]]	8e#X	]	8gg#	]	V
=179	=179	=179	=179	=179	=179	=179	=179	=179
4FF#	p	4C# 4A	p	4f#)	p	4ff#)	p	i[i
8r	.	(8F#	.	(8c#	.	(8a	.	.
4FF#	.	8E#XL	.	8BL	.	8g#L	.	#viio
.	.	8F#)	.	8c#)	.	8a)	.	i
8r	.	8C#'J	.	8A'J	.	8f#'J	.	i64
=180	=180	=180	=180	=180	=180	=180	=180	=180
4FF#	.	(4C#	.	(4A	.	(4f#	.	.
8r	.	8F#)	.	8c#)	.	8a)	.	.
4FF#	.	(16E#XLL	.	(16BLL	.	(16g#LL	.	#viio
.	.	16F#)	.	16c#)	.	16a)	.	.
.	.	(16BB	.	(16d	.	(16b	.	.
.	.	16C#)	.	16c#)	.	16a)	.	.
8r	.	(16D	.	(16B	.	(16g#	.	.
.	.	16C#JJ)	.	16AJJ)	.	16f#JJ)	.	.
=181	=181	=181	=181	=181	=181	=181	=181	=181
4FF#	.	(4C#	.	(4A	.	(4f#	.	i64
8r	.	8F#)	.	8c#)	.	8a)	.	.
4FF#	.	(16E#XLL	.	(16BLL	.	(16g#LL	.	#viio
.	.	16F#)	.	16c#)	.	16a)	.	.
.	.	(16E#	.	(16B	.	(16g#	.	.
.	.	16F#J)	.	16c#J)	.	16aJ)	.	.
8r	.	8C#J	.	8AJ	.	8f#J	.	i64
=182	=182	=182	=182	=182	=182	=182	=182	=182
4FF#	.	(4C#	.	(4A	.	(4f#	.	.
8r	.	8F#)	.	8c#)	.	8a)	.	.
4FF#	.	(16E#XLL	.	(16BLL	.	(16g#LL	.	#viio
.	.	16F#)	.	16c#)	.	16a)	.	.
.	.	(16BB	.	(16d	.	(16b	.	.
.	.	16C#)	.	16c#)	.	16a)	.	.
8r	.	(16D	.	(16B	.	(16g#	.	.
.	.	16C#JJ)	.	16AJJ)	.	16f#JJ)	.	.
=183	=183	=183	=183	=183	=183	=183	=183	=183
4FF#	.	(4C#	.	(4A	.	(4f#	.	i64
8r	.	16DLL	.	16BLL	.	16g#LL	.	.
.	.	16C#JJ)	.	16AJJ)	.	16f#JJ)	.	.
4FF#	.	(4C#	.	(4A	.	(4f#	.	.
8r	.	16DLL	.	16BLL	.	16g#LL	.	.
.	.	16C#JJ)	.	16AJJ)	.	16f#JJ)	.	.
=184	=184	=184	=184	=184	=184	=184	=184	=184
8FF#	.	8C#	.	8A	.	8f#	.	i64]\\
8r	.	8r	.	8r	.	8r	.	.
!LO:TX:a:t=arco	!	!	!	!	!	!	!	!
(8GGX	f	(8GX	f	8r	.	8r	.	@none
8EE-XL	.	8E-XL	.	4r	.	4r	.	.
8GG	.	8G	.	.	.	.	.	.
!	!LO:DY:a	!	!LO:DY:a	!	!	!	!	!
8DDJ	sf sf	8DJ	sf	[8B-X	.	[8b-X	sf	vi.VI6
=185	=185	=185	=185	=185	=185	=185	=185	=185
8CC#L	.	8C#L	.	(4B-]	.	(4b-]	.	V65(2)
8EE	.	8E	.	.	.	.	.	.
8GGXJ)	.	8GXJ)	.	8A)	.	8a)	.	V2
(8EE-XL	.	(8E-XL	.	8r	.	8r	.	.
!	!LO:DY:a	!	!	!	!	!	!	!
8GG	sf sf	8G	.	8r	.	8r	.	.
8DDJ	.	8DJ	.	[8B-X	sf	[8b-X	sf	VI6
=186	=186	=186	=186	=186	=186	=186	=186	=186
8CC#L	.	8C#L	.	(4B-]	.	(4b-]	.	V65(2)
8EE	.	8E	.	.	.	.	.	.
8GGXJ)	.	8GXJ)	.	8A)	.	8a)	.	V2
(8EEL	.	(8E	.	4r	.	8r	.	.
8GG	.	[4G)	.	.	.	8r	.	.
8DDJ	.	.	.	[8A#X	.	[8a#X	.	.
=187	=187	=187	=187	=187	=187	=187	=187	=187
!	!	!	!LO:DY:a	!	!LO:DY:a	!	!	!
8CC#L	f	(4G]	f f	(4A#]	f	(4a#]	.	i.#viio65/iv
8EE	.	.	.	.	.	.	.	.
8DDJ	.	8F#	.	8B	.	8b	.	iv6
8AAA#XL	>	8EL	>	8c#L	>	8cc#L	>	#viio/iv
8BBB	.	8D)	.	8d)	.	8dd)	.	iv
8DDJ)	]]	8F#'J	]]	8B'J	]]	8b'J	]]	iv6
=188	=188	=188	=188	=188	=188	=188	=188	=188
[2.CC#	p	(4.F#	p	(8c#L	p	(4.a	p	V(64)
.	.	.	.	8B#X	.	.	.	.
.	.	.	.	8c#J)	.	.	.	.
.	.	4E#X	.	4.c#	.	4g#	.	V
.	.	[8E)	.	.	.	[8gX)	.	vi.#viio
=189	=189	=189	=189	=189	=189	=189	=189	=189
!LO:TX:b:i:t=cresc.	!	!LO:TX:b:i:t=cresc.	!	!LO:TX:b:i:t=cresc.	!	!LO:TX:b:i:t=cresc.	!	!
4.CC#_	.	8E]	.	8r	.	4g]	.	#viio
.	.	[4C#	.	8r	.	.	.	.
.	.	.	.	(8gX	.	(8ggX	.	.
4CC#]	.	4C#]	.	8eL	.	8eeL	.	vo
.	.	.	.	8g	.	8gg	.	.
!	!LO:DY:a	!	!	!	!	!	!	!
[8BBB-X	sf sf	[8BB-X	.	8dJ	sf	8ddJ	sf	VI
=190	=190	=190	=190	=190	=190	=190	=190	=190
(4BBB-]	.	(4BB-]	.	8c#L	.	8cc#L	.	V7(2)
.	.	.	.	8e	.	8ee	.	.
8AAA)	.	8AA)	.	8gXJ)	.	8ggXJ)	.	V7
8r	.	8r	.	(8e-XL	.	(8ee-XL	.	.
8r	.	8r	.	8g	.	8gg	.	.
!	!LO:DY:a	!	!	!	!	!	!	!
[8BBB-X	sf sf	[8BB-X	.	8dJ	sf	8ddJ	sf	VI
=191	=191	=191	=191	=191	=191	=191	=191	=191
(4BBB-]	.	(4BB-]	.	8c#L	.	8cc#L	.	V7(2)
.	.	.	.	8e	.	8ee	.	.
8AAA)	.	8AA)	.	8gXJ)	.	8ggXJ)	.	V7
8r	.	8r	.	(8eL	.	(8eeL	.	.
8r	f	8r	f	8g	.	8gg	.	.
[8AAA#X	.	[8AA#X	.	8dJ	f	8ddJ	f	i.#viio7/iv
=192	=192	=192	=192	=192	=192	=192	=192	=192
4.AAA#_	.	4.AA#_	.	8c#L	.	8cc#L	.	.
.	.	.	.	8gX	.	8ggX	.	.
.	.	.	.	8f#J	.	8ff#J	.	.
4AAA#]	>	(8AA#L]	>	8e#XL	>	8ee#XL	>	.
.	.	8C#	.	8f#	.	8ff#	.	.
8AA#X	]]	8F#J)	]]	8c#J	]]	8cc#J	]]	V65/iv
=193	=193	=193	=193	=193	=193	=193	=193	=193
4BB	p	4F#	p	(8eL)	p	(8eeL)	p	iv
.	.	.	.	8d)	.	8dd)	.	.
8D	.	[8F#	.	8B'J	.	8b'J	.	iv6
4C#	.	4F#]	.	(8AL	.	(4a	.	V(64)
.	.	.	.	8c#	.	.	.	.
8CC#	.	[8C#	.	8BJ)	.	8g#)	.	V
=194	=194	=194	=194	=194	=194	=194	=194	=194
4FF#	.	(4C#]	.	(4A	.	(4f#	.	i\\
8r	.	8F#	.	8c#	.	8a	.	.
!LO:TX:a:t=pizz.	!	!	!	!	!	!	!	!
4FF#	.	8E#XL	.	8BL	.	8g#L	.	i[#viio
.	.	8F#)	.	8c#)	.	8a)	.	.
8r	.	8C#'J	.	8A'J	.	8f#'J	.	i64
=195	=195	=195	=195	=195	=195	=195	=195	=195
4FF#	.	(4C#	.	(4A	.	(4f#	.	.
8r	.	8F#)	.	8c#)	.	8a)	.	i
4FF#	.	(16E#XLL	.	(16BLL	.	(16g#LL	.	#viio
.	.	16F#)	.	16c#)	.	16a)	.	.
.	.	(16BB	.	(16d	.	(16b	.	.
.	.	16C#)	.	16c#)	.	16a)	.	.
8r	.	(16D	.	(16B	.	(16g#	.	.
.	.	16C#JJ)	.	16AJJ)	.	16f#JJ)	.	.
=196	=196	=196	=196	=196	=196	=196	=196	=196
4FF#	.	(4C#	.	(4A	.	(4f#	.	i64
8r	.	8F#)	.	8c#)	.	8a)	.	i
4FF#	.	(16E#XLL	.	(16BLL	.	(16g#LL	.	#viio
.	.	16F#)	.	16c#)	.	16a)	.	.
.	.	(16E#	.	(16B	.	(16g#	.	.
.	.	16F#J)	.	16c#J)	.	16aJ)	.	.
8r	.	8C#J	.	8AJ	.	8f#J	.	.
=197	=197	=197	=197	=197	=197	=197	=197	=197
4FF#	.	(4C#	.	(4A	.	(4f#	.	i64
8r	.	8F#)	.	8c#)	.	8a)	.	i
4FF#	.	(16E#XLL	.	(16BLL	.	(16g#LL	.	#viio
.	.	16F#)	.	16c#)	.	16a)	.	.
.	.	(16BB	.	(16d	.	(16b	.	.
.	.	16C#)	.	16c#)	.	16a)	.	.
8r	.	(16D	.	(16B	.	(16g#	.	.
.	.	16C#JJ)	.	16AJJ)	.	16f#JJ)	.	.
=198	=198	=198	=198	=198	=198	=198	=198	=198
!LO:TX:b:i:t=dim.	!	!LO:TX:b:i:t=dim.	!	!LO:TX:b:i:t=dim.	!	!LO:TX:b:i:t=dim.	!	!
4FF#	.	(4C#	.	(4A	.	(4f#	.	i]
8r	.	16DLL	.	16BLL	.	16g#LL	.	.
.	.	16C#JJ)	.	16AJJ)	.	16f#JJ)	.	.
4FF#	.	(4C#	.	(4A	.	(4f#	.	i
8r	.	16DLL	.	16BLL	.	16g#LL	.	.
.	.	16C#JJ)	.	16AJJ)	.	16f#JJ)	.	.
=199	=199	=199	=199	=199	=199	=199	=199	=199
4FF#	.	(4C#	.	(4A	.	(4f#	.	.
8r	.	16DLL	.	16BLL	.	16g#LL	.	.
.	.	16C#JJ)	.	16AJJ)	.	16f#JJ)	.	.
4FF#	.	(4C#	.	(4A	.	(4f#	.	.
8r	.	16DLL	.	16BLL	.	16g#LL	.	.
.	.	16C#JJ)	.	16AJJ)	.	16f#JJ)	.	.
=200	=200	=200	=200	=200	=200	=200	=200	=200
!	!	!	!LO:DY:a	!	!	!	!	!
8FF#L	pp	[2.C#	pp pp	[2.A	.	[2.f#	pp	i64
8EE	.	.	.	.	.	.	.	.
8DDJ	.	.	.	.	.	.	.	.
8CC#L	.	.	.	.	.	.	.	.
8DD	.	.	.	.	.	.	.	.
8BBBJ	.	.	.	.	.	.	.	.
=201	=201	=201	=201	=201	=201	=201	=201	=201
8AAAL	.	2.C#_	.	2.A_	.	2.f#_	.	i64
8BBB	.	.	.	.	.	.	.	.
8BBB#XJ	.	.	.	.	.	.	.	.
8CC#L	.	.	.	.	.	.	.	.
8DD#X	.	.	.	.	.	.	.	.
8EE#XJ	.	.	.	.	.	.	.	.
=202	=202	=202	=202	=202	=202	=202	=202	=202
!LO:TX:b:i:t=cresc.	!	!LO:TX:b:i:t=cresc.	!	!LO:TX:b:i:t=cresc.	!	!LO:TX:b:i:t=cresc.	!	!
8FF#L	.	2.C#_	.	2.A_	.	2.f#_	.	i64
8GG#	.	.	.	.	.	.	.	.
8AAJ	.	.	.	.	.	.	.	.
8BBL	.	.	.	.	.	.	.	.
8BB#X	.	.	.	.	.	.	.	.
8C#J	.	.	.	.	.	.	.	.
=203	=203	=203	=203	=203	=203	=203	=203	=203
8DL	.	4.C#]	.	4.A]	.	4.f#]	.	i64(2)
8BB	.	.	.	.	.	.	.	.
8C#J	.	.	.	.	.	.	.	.
8AAL	.	[4.C#	.	[4.A	.	[4.f#	.	i6
8BB	.	.	.	.	.	.	.	.
8GG#J	.	.	.	.	.	.	.	.
=204	=204	=204	=204	=204	=204	=204	=204	=204
8AAL	.	4.C#]	.	4.A]	.	4.f#]	.	.
8FF#	.	.	.	.	.	.	.	.
8GG#J	.	.	.	.	.	.	.	.
!LO:TX:b:i:t=dim.	!	!LO:TX:b:i:t=dim.	!	!LO:TX:b:i:t=dim.	!	!LO:TX:b:i:t=dim.	!	!
8FF#L	.	[4.C#	.	[4.A	.	[4.f#	.	i
8GG#	.	.	.	.	.	.	.	.
8FF#J	.	.	.	.	.	.	.	.
=205	=205	=205	=205	=205	=205	=205	=205	=205
8GG#L	.	4.C#]	.	4.A]	.	4.f#]	.	.
8FF#	.	.	.	.	.	.	.	.
8GG#J	.	.	.	.	.	.	.	.
!	!LO:DY:a	!	!LO:DY:a	!	!	!	!	!
8FF#L	pp pp	[4.C#	pp	[4.A	.	[4.f#	pp	.
8GG#	.	.	.	.	.	.	.	.
8FF#J	.	.	.	.	.	.	.	.
=206	=206	=206	=206	=206	=206	=206	=206	=206
4FF#	.	4C#]	.	4A]	.	4f#]	.	i
8r	.	8r	.	8r	.	8r	.	.
!	!	!LO:TX:b:t=pizz.	!	!LO:TX:b:t=pizz.	!	!LO:TX:b:t=pizz.	!	!
4FF#	.	4F#	.	4F#	.	4F#	.	.
8r	.	8r	.	8r	.	8r	.	.
=207	=207	=207	=207	=207	=207	=207	=207	=207
4FF#	.	4F#	.	4F#	.	4F#	.	i\\
8r	.	8r	.	8r	.	8r	.	.
4r	.	4r	.	4r	.	4r	.	.
8r	.	8r	.	8r	.	8r	.	.
==	==	==	==	==	==	==	==	==
*-	*-	*-	*-	*-	*-	*-	*-	*-
!!!system-decoration: [(s1,s2,s3,s4)]
!!!YEM: 
